!!!!SEGMENT: pl-sa--259-a-vii-19--002_zajaczkowski-roman--veni-creator-spiritus-veni-creator.krn
!!!cenid: 17xx:361
!!!COM: Zajączkowski, Roman
!!!COM-rismid: pe41012326
!!!CDT: 1661-1710
!!!CNT: Polish
!!!OPR: Veni Creator Spiritus
!!!OTL: Veni Creator
!!!OMV: 002
!!!PDT: 1706
!!!AGN: Sacred
!!!SMS-siglum: PL-SA
!!!SMS-shelfmark: 259/A VII 19
!!!SMS-shelfwork: 001-002 M
!!!NIFC-rismid: 1001039862
!!!URL-scan: http://bc.bdsandomierz.pl/dlibra/publication/1772/edition/1740/content
!!!ONB-nifc: UWAGA: części: Symfonia, Veni Creator
**kern	**fb	**kern	**kern	**kern	**kern	**text	**kern	**text	**kern	**text	**kern	**text	**kern	**text	**kern	**kern
*part11	*part11	*part10	*part9	*part8	*part7	*part7	*part6	*part6	*part5	*part5	*part4	*part4	*part3	*part3	*part2	*part1
*	*	*group3	*group3	*group3	*group2	*group2	*group2	*group2	*group2	*group2	*group2	*group2	*group2	*group2	*group1	*group1
*staff11	*staff11	*staff10	*staff9	*staff8	*staff7	*staff7	*staff6	*staff6	*staff5	*staff5	*staff4	*staff4	*staff3	*staff3	*staff2	*staff1
*Iempty	*	*Iviola	*Ivioln	*Ivioln	*Iempty	*	*Itenor	*	*Ialto	*	*Ivox	*	*Ivox	*	*Iempty	*Iempty
*I"Baſso	*	*I"Viola di Gamba	*I"Violino 2.	*I"Violino I	*I"Baſso.	*	*I"Tenore.	*	*I"Alto.	*	*I"Canto 2.	*	*I"Canto I.	*	*I"Clarino 2.	*I"Clarino I.
*I'Org.	*	*I'V-la da g.	*I'V-no 2	*I'V-no 1	*I'B.	*	*I'T.	*	*I'A.	*	*I'S. 2	*	*I'S. 1	*	*I'Cl-no 2	*I'Cl-no 1
*clefF4	*	*clefF4	*clefG2	*clefG2	*clefF4	*	*clefC4	*	*clefC3	*	*clefC1	*	*clefC1	*	*clefG2	*clefG2
*k[]	*	*k[]	*k[]	*k[]	*k[]	*	*k[]	*	*k[]	*	*k[]	*	*k[]	*	*k[]	*k[]
*C:	*	*C:	*C:	*C:	*C:	*	*C:	*	*C:	*	*C:	*	*C:	*	*C:	*C:
*M2/2	*	*M2/2	*M2/2	*M2/2	*M2/2	*	*M2/2	*	*M2/2	*	*M2/2	*	*M2/2	*	*M2/2	*M2/2
*met(c|)	*	*met(c|)	*met(c|)	*met(c|)	*met(c|)	*	*met(c|)	*	*met(c|)	*	*met(c|)	*	*met(c|)	*	*met(c|)	*met(c|)
=1	=1	=1	=1	=1	=1	=1	=1	=1	=1	=1	=1	=1	=1	=1	=1	=1
*	*above	*	*	*	*	*	*	*	*	*	*	*	*	*	*	*
!	!	!	!	!	!LO:TX:a:t=P:problem:w źródle "Veni Creator Tacet." zapisane na pięciolinii	!	!	!	!	!	!	!	!	!	!	!
!LO:TX:b:t=Veni Creator Cant&colon;	!	!LO:TX:b:t=Veni Creator Cant.	!LO:TX:b:t=Veni Creator	!LO:TX:b:t=Veni Creator	!LO:TX:b:t=Veni Creator \nTacet.	!	!LO:TX:b:t=Veni Creator.	!	!	!	!	!	!	!	!LO:TX:b:t=Veni Creator.	!LO:TX:b:t=Veni Creator Spiritus.
2C/	.	2C/	00r	00r	1ryy	.	00r	.	00r	.	2r	.	16cc\LL	Ve-	00r	00r
.	.	.	.	.	.	.	.	.	.	.	.	.	(>16b\	.	.	.
.	.	.	.	.	.	.	.	.	.	.	.	.	16cc\)	.	.	.
.	.	.	.	.	.	.	.	.	.	.	.	.	16dd\JJ	.	.	.
.	.	.	.	.	.	.	.	.	.	.	.	.	8cc\	-ni	.	.
.	.	.	.	.	.	.	.	.	.	.	.	.	8g/	.	.	.
*	*	*	*	*	*	*	*	*	*	*	*	*	*	*ij	*	*
2C/	.	8C\L	.	.	.	.	.	.	.	.	16cc\LL	Ve-	16ee\LL	Ve-	.	.
.	.	.	.	.	.	.	.	.	.	.	16b\	.	16dd\	.	.	.
.	.	8E\	.	.	.	.	.	.	.	.	16cc\	.	16ee\	.	.	.
.	.	.	.	.	.	.	.	.	.	.	16dd\JJ	.	16ff\JJ	.	.	.
.	.	8G\	.	.	.	.	.	.	.	.	8cc\	-ni	8ee\	ni	.	.
.	.	8c\J	.	.	.	.	.	.	.	.	8g/	.	8cc\	.	.	.
=2	=2	=2	=2	=2	=2	=2	=2	=2	=2	=2	=2	=2	=2	=2	=2	=2
*	*	*	*	*	*	*	*	*	*	*	*	*ij	*	*	*	*
2C/	5 3	16c\LL	.	.	1ryy	.	.	.	.	.	16ee\LL	Ve-	16gg\LL	Ve-	.	.
.	.	16B\	.	.	.	.	.	.	.	.	16dd\	.	16ff\	.	.	.
.	.	16A\	.	.	.	.	.	.	.	.	16ee\	.	16gg\	.	.	.
.	.	16G\JJ	.	.	.	.	.	.	.	.	16ff\JJ	.	16aa\JJ	.	.	.
.	.	16F\LL	.	.	.	.	.	.	.	.	8ee\	ni	8gg\	ni	.	.
*	*	*	*	*	*	*	*	*	*	*	*	*Xij	*	*Xij	*	*
.	.	16E\	.	.	.	.	.	.	.	.	.	.	.	.	.	.
.	.	16D\	.	.	.	.	.	.	.	.	8cc\	.	8ee\	.	.	.
.	.	16C\JJ	.	.	.	.	.	.	.	.	.	.	.	.	.	.
4C/	.	4C/	.	.	.	.	.	.	.	.	8gg\	Ve-	8ee\	Ve-	.	.
.	.	.	.	.	.	.	.	.	.	.	16gg\	-ni	16ee\	-ni	.	.
.	.	.	.	.	.	.	.	.	.	.	16gg\	Cre-	16ee\	Cre-	.	.
8C/L	.	8C/L	.	.	.	.	.	.	.	.	(>16gg\LL	-a-	(>16ee\LL	-a-	.	.
.	.	.	.	.	.	.	.	.	.	.	16ff\)	.	16dd\)	.	.	.
8GG/J	.	8GG/J	.	.	.	.	.	.	.	.	(>16gg\	-tor	(>16ee\	-tor	.	.
.	.	.	.	.	.	.	.	.	.	.	16dd\JJ)	.	16b\JJ)	.	.	.
=3	=3	=3	=3	=3	=3	=3	=3	=3	=3	=3	=3	=3	=3	=3	=3	=3
4C/	.	16C\LL	.	.	1ryy	.	.	.	.	.	16ee\	Spi-	16cc\	Spi-	.	.
.	.	16D\	.	.	.	.	.	.	.	.	16ee\	-ri-	16cc\	-ri-	.	.
.	.	16E\	.	.	.	.	.	.	.	.	8ee\	-tus	8cc\	-tus	.	.
.	.	16F\JJ	.	.	.	.	.	.	.	.	.	.	.	.	.	.
!	!	!LO:TX:a:t=P:problem:mixed beam	!	!	!	!	!	!	!	!	!	!	!	!	!	!
4GG/	.	16G\LL	.	.	.	.	.	.	.	.	8dd\	Ve-	8b\	Ve-	.	.
.	.	16GG/	.	.	.	.	.	.	.	.	.	.	.	.	.	.
.	.	16C/	.	.	.	.	.	.	.	.	8dd\	-ni	8b\	-ni	.	.
.	.	16GG/JJ	.	.	.	.	.	.	.	.	.	.	.	.	.	.
*	*	*	*	*	*	*	*	*	*	*	*	*ij	*	*	*	*
!	!	!	!	!	!	!	!	!	!	!	!	!	!LO:LB:g=original	!	!	!
4C/	.	4C/	.	.	.	.	.	.	.	.	8ee\	Ve-	8gg\	Ve-	.	.
.	.	.	.	.	.	.	.	.	.	.	16ee\	-ni	16gg\	-ni	.	.
.	.	.	.	.	.	.	.	.	.	.	16ee\	-cre-	16gg\	cre-	.	.
!	!	!	!	!	!	!	!	!	!	!	!LO:LB:g=original	!	!	!	!	!
8C/L	.	8C/L	.	.	.	.	.	.	.	.	(>16ee\LL	-a-	(>16gg\LL	-a-	.	.
.	.	.	.	.	.	.	.	.	.	.	16dd\)	.	16ff\)	.	.	.
8GG/J	.	8GG/J	.	.	.	.	.	.	.	.	(>16ee\	-tor	(>16gg\	-tor	.	.
.	.	.	.	.	.	.	.	.	.	.	16b\JJ)	.	16dd\JJ)	.	.	.
!LO:LB:g=original	!	!LO:LB:g=original	!	!	!	!	!	!	!	!	!	!	!	!	!	!
=4	=4	=4	=4	=4	=4	=4	=4	=4	=4	=4	=4	=4	=4	=4	=4	=4
*	*	*clefC4	*	*	*	*	*	*	*	*	*	*	*	*	*	*
*	*	*^	*	*	*	*	*	*	*	*	*	*	*	*	*	*
!	!	!	!	!	!	!	!	!	!	!LO:TX:a:t=P:problem:błąd renderowania - nadal wyświetla się pauza mimio, że została zamieniona na wielotaktową	!	!	!	!	!	!	!
!	!	!	!	!	!	!	!	!	!	!	!	!	!	!	!	!	!LO:TX:a:t=P:problem:błąd renderowania - nadal wyświetla się pauza mimio, że została zamieniona na wielotaktową
!	!	!	!	!	!	!	!	!	!	!	!	!	!	!	!	!LO:TX:a:t=P:problem:błąd renderowania - nadal wyświetla się pauza mimio, że została zamieniona na wielotaktową	!
!	!	!	!	!	!LO:TX:a:t=P:problem:błąd renderowania - nadal wyświetla się pauza mimio, że została zamieniona na wielotaktową	!	!	!	!	!	!	!	!	!	!	!	!
!	!	!	!	!LO:TX:a:t=P:problem:błąd renderowania - nadal wyświetla się pauza mimio, że została zamieniona na wielotaktową	!	!	!	!	!	!	!	!	!	!	!	!	!
!	!	!	!	!	!	!	!	!LO:TX:a:t=P:problem:błąd renderowania - nadal wyświetla się pauza mimio, że została zamieniona na wielotaktową	!	!	!	!	!	!	!	!	!
4C/	.	8gL 8e 8c 8E 8C/	8ryy	.	.	1ryy	.	.	.	.	.	16cc\	Spi-	16ee\	Spi-	.	.
.	.	.	.	.	.	.	.	.	.	.	.	16cc\	-ri-	16ee\	-ri-	.	.
.	.	16g/L 16e	16c\LL	.	.	.	.	.	.	.	.	8cc\	-tus	8ee\	-tus	.	.
.	.	16g/JJ	16c\JJ	.	.	.	.	.	.	.	.	.	.	.	.	.	.
4GG/	.	8gL 8e 8c 8E 8C/	4ryy	.	.	.	.	.	.	.	.	8b\	Ve-	8dd\	Ve-	.	.
.	.	8dJ 8B 8G/	.	.	.	.	.	.	.	.	.	8b\	-ni	8dd\	-ni	.	.
*	*	*clefF4	*	*	*	*	*	*	*	*	*	*	*Xij	*	*	*	*
4C/	.	8c\L	2ryy	.	.	.	.	.	.	.	.	16cc\LL	Ve-	16ee\LL	Ve-	.	.
.	.	.	.	.	.	.	.	.	.	.	.	16b\	.	(>16dd\	.	.	.
.	.	16c\L	.	.	.	.	.	.	.	.	.	16cc\	.	16ee\)	.	.	.
.	.	16c\JJ	.	.	.	.	.	.	.	.	.	16dd\JJ	.	16ff\JJ	.	.	.
!	!	!LO:TX:a:t=P:problem:mixed beam	!	!	!	!	!	!	!	!	!	!	!	!	!	!	!
8C/L	.	8G\L	.	.	.	.	.	.	.	.	.	16ee\LL	.	16gg\LL	.	.	.
.	.	.	.	.	.	.	.	.	.	.	.	16dd\	.	16ff\	.	.	.
8GG/J	.	8GG/J	.	.	.	.	.	.	.	.	.	16ee\	-ni	(>16gg\	-ni	.	.
.	.	.	.	.	.	.	.	.	.	.	.	16b\JJ	.	16dd\JJ)	.	.	.
*	*	*v	*v	*	*	*	*	*	*	*	*	*	*	*	*	*	*
=5	=5	=5	=5	=5	=5	=5	=5	=5	=5	=5	=5	=5	=5	=5	=5	=5
*	*	*	*	*	*	*	*	*	*	*	*	*ij	*	*ij	*	*
4C/	.	4C/	00r	00r	1ryy	.	00r	.	00r	.	16ee\LL	Ve-	16cc\LL	Ve-	1r	1r
.	.	.	.	.	.	.	.	.	.	.	16dd\	.	16b\	.	.	.
.	.	.	.	.	.	.	.	.	.	.	16ee\	.	16cc\	.	.	.
.	.	.	.	.	.	.	.	.	.	.	16ff\JJ	.	16dd\JJ	.	.	.
8C/L	.	8c\L	.	.	.	.	.	.	.	.	16gg\LL	.	16ee\LL	.	.	.
.	.	.	.	.	.	.	.	.	.	.	16ff\	-ni	16dd\	.	.	.
8GG/J	.	8G\J	.	.	.	.	.	.	.	.	16gg\	.	16ee\	ni	.	.
*	*	*	*	*	*	*	*	*	*	*	*	*Xij	*	*Xij	*	*
.	.	.	.	.	.	.	.	.	.	.	16dd\JJ	.	16b\JJ	.	.	.
4C/	.	16C\LL	.	.	.	.	.	.	.	.	(>16cc\LL	Ve-	(>16ee\LL	Ve-	.	.
.	.	16D\	.	.	.	.	.	.	.	.	16ee\)	.	16gg\)	.	.	.
.	.	16E\	.	.	.	.	.	.	.	.	(>16dd\	-ni	(>16ff\	-ni	.	.
.	.	16C\JJ	.	.	.	.	.	.	.	.	16cc\JJ)	.	16ee\JJ)	.	.	.
*	*	*	*	*	*	*	*	*	*	*	*	*ij	*	*ij	*	*
!	!	!LO:TX:a:t=P:problem:mixed beam	!	!	!	!	!	!	!	!	!	!	!	!	!	!
!	!	!	!	!	!	!	!	!	!	!	!LO:TX:a:t=P:problem:w źródle łuczek nad "+"	!	!LO:TX:a:t=P:problem:w źródle łuczek nad "+"	!	!	!
!	!	!	!	!	!	!	!	!	!	!	!LO:TX:a:t=+	!	!LO:TX:a:t=+	!	!	!
8GG/L	.	16G\LL	.	.	.	.	.	.	.	.	8.b\	Ve-	8.dd\	Ve-	.	.
.	.	16GG/J	.	.	.	.	.	.	.	.	.	.	.	.	.	.
8C/J	.	8C/J	.	.	.	.	.	.	.	.	.	.	.	.	.	.
.	.	.	.	.	.	.	.	.	.	.	16cc\	-ni	16cc\	-ni	.	.
*	*	*	*	*	*	*	*	*	*	*	*	*Xij	*	*Xij	*	*
=6	=6	=6	=6	=6	=6	=6	=6	=6	=6	=6	=6	=6	=6	=6	=6	=6-
*^	*	*	*	*	*	*	*	*	*	*	*	*	*	*	*	*
!LO:TX:b:t=Clarini.	!	!	!	!	!	!	!	!	!	!	!	!	!	!	!	!	!
!	!	!	!	!	!	!	!	!	!	!	!	!LO:N:vis=00	!	!	!	!	!
!	!	!	!LO:N:vis=00	!	!	!	!	!	!	!	!	!LO:TX:a:t=P:problem:w źródle dodatkowa pauza 1-taktowa	!	!LO:TX:a:t=P:problem:w źródle dodatkowa pauza 1-taktowa	!	!	!
!	!	!	!LO:TX:a:t=P:problem:w źródle dodatkowa pauza 1-taktowa	!	!	!	!	!	!	!	!	!	!	!	!	!	!
2C/	1C	.	00r	.	.	1ryy	.	.	.	.	.	00r	.	00r	.	2r	16cc\LL
.	.	.	.	.	.	.	.	.	.	.	.	.	.	.	.	.	16dd\
.	.	.	.	.	.	.	.	.	.	.	.	.	.	.	.	.	16cc\
.	.	.	.	.	.	.	.	.	.	.	.	.	.	.	.	.	16dd\JJ
!	!	!	!	!	!	!	!	!	!	!	!	!	!	!	!	!	!LO:TX:a:t=P:problem:mixed beam
!	!	!	!	!	!	!	!	!	!	!	!	!	!	!	!	!	!LO:TX:a:t=+
!	!	!	!	!	!	!	!	!	!	!	!	!	!	!	!	!	!LO:TX:a:t=P:problem:w źródle łuczek nad "+"
.	.	.	.	.	.	.	.	.	.	.	.	.	.	.	.	.	8.cc\L
.	.	.	.	.	.	.	.	.	.	.	.	.	.	.	.	.	16g/Jk
8c\L	.	.	.	.	.	.	.	.	.	.	.	.	.	.	.	16cc\LL	16ee\LL
.	.	.	.	.	.	.	.	.	.	.	.	.	.	.	.	16dd\	16ff\
8c\	.	.	.	.	.	.	.	.	.	.	.	.	.	.	.	16cc\	16ee\
.	.	.	.	.	.	.	.	.	.	.	.	.	.	.	.	16dd\JJ	16ff\JJ
8c\	.	.	.	.	.	.	.	.	.	.	.	.	.	.	.	8cc\L	8.ee\L
8B\J	.	X 6	.	.	.	.	.	.	.	.	.	.	.	.	.	8g\J	.
.	.	.	.	.	.	.	.	.	.	.	.	.	.	.	.	.	16cc\Jk
*v	*v	*	*	*	*	*	*	*	*	*	*	*	*	*	*	*	*
=7	=7	=7	=7	=7	=7	=7	=7	=7	=7	=7	=7	=7	=7	=7	=7	=7
4c\	.	.	.	.	1ryy	.	.	.	.	.	.	.	.	.	16ee\LL	16gg\LL
.	.	.	.	.	.	.	.	.	.	.	.	.	.	.	16dd\	16ff\
.	.	.	.	.	.	.	.	.	.	.	.	.	.	.	16ee\	16gg\
.	.	.	.	.	.	.	.	.	.	.	.	.	.	.	16ff\JJ	16aa\JJ
4G\	.	.	.	.	.	.	.	.	.	.	.	.	.	.	8ee\L	8gg\L
.	.	.	.	.	.	.	.	.	.	.	.	.	.	.	8cc\J	8ee\J
8C/L	.	.	.	.	.	.	.	.	.	.	.	.	.	.	8ee\L	8gg\L
8C/	.	.	.	.	.	.	.	.	.	.	.	.	.	.	16ee\L	16gg\L
.	.	.	.	.	.	.	.	.	.	.	.	.	.	.	16ee\JJ	16gg\JJ
8C/	.	.	.	.	.	.	.	.	.	.	.	.	.	.	16ee\LL	16gg\LL
!	!	!	!	!	!	!	!	!	!	!	!	!	!	!	!LO:TX:a:t=P:problem:mixed beam	!
.	.	.	.	.	.	.	.	.	.	.	.	.	.	.	16dd\	16ff\
8BB/J	X 6	.	.	.	.	.	.	.	.	.	.	.	.	.	16ee\	16gg\
.	.	.	.	.	.	.	.	.	.	.	.	.	.	.	16g/JJ	16dd\JJ
=8	=8	=8	=8	=8	=8	=8	=8	=8	=8	=8	=8	=8	=8	=8	=8	=8
4C/	.	.	.	.	1ryy	.	.	.	.	.	.	.	.	.	16cc\LL	16ee\LL
.	.	.	.	.	.	.	.	.	.	.	.	.	.	.	16ee\	16gg\
.	.	.	.	.	.	.	.	.	.	.	.	.	.	.	16dd\	16ff\
.	.	.	.	.	.	.	.	.	.	.	.	.	.	.	16cc\JJ	16ee\JJ
4G\	.	.	.	.	.	.	.	.	.	.	.	.	.	.	8g/L	8dd\L
.	.	.	.	.	.	.	.	.	.	.	.	.	.	.	8g/J	8dd\J
4c\	.	.	.	.	.	.	.	.	.	.	.	.	.	.	8gg\L	8ee\L
.	.	.	.	.	.	.	.	.	.	.	.	.	.	.	16gg\L	16ee\L
.	.	.	.	.	.	.	.	.	.	.	.	.	.	.	16gg\JJ	16ee\JJ
!	!	!	!	!	!	!	!	!	!	!	!	!	!	!	!	!LO:TX:a:t=P:problem:mixed beam
8c\L	.	.	.	.	.	.	.	.	.	.	.	.	.	.	16gg\LL	8ee\L
.	.	.	.	.	.	.	.	.	.	.	.	.	.	.	16ff\	.
8G\J	.	.	.	.	.	.	.	.	.	.	.	.	.	.	16gg\	8g/J
.	.	.	.	.	.	.	.	.	.	.	.	.	.	.	16dd\JJ	.
=9	=9	=9	=9	=9	=9	=9	=9	=9	=9	=9	=9	=9	=9	=9	=9	=9
4C/	.	.	00r	00r	1ryy	.	00r	.	00r	.	.	.	.	.	8ee\L	8cc\L
.	.	.	.	.	.	.	.	.	.	.	.	.	.	.	16ee\L	16cc\L
.	.	.	.	.	.	.	.	.	.	.	.	.	.	.	16ee\JJ	16cc\JJ
8C/L	.	.	.	.	.	.	.	.	.	.	.	.	.	.	8dd\L	8g/L
8GG/J	.	.	.	.	.	.	.	.	.	.	.	.	.	.	8dd\J	8g/J
!	!	!	!	!	!	!	!	!	!	!	!	!	!	!	!	!LO:LB:g=original
16C\LL	.	.	.	.	.	.	.	.	.	.	.	.	.	.	16cc\LL	16ee\LL
16D\	.	.	.	.	.	.	.	.	.	.	.	.	.	.	16a\	16dd\
16E\	.	.	.	.	.	.	.	.	.	.	.	.	.	.	16cc\	16ee\
16F\JJ	.	.	.	.	.	.	.	.	.	.	.	.	.	.	16dd\JJ	16ff\JJ
!	!	!	!	!	!	!	!	!	!	!	!	!	!	!	!LO:LB:g=original	!
!LO:TX:a:t=P:problem:mixed beam	!	!	!	!	!	!	!	!	!	!	!	!	!	!	!LO:TX:a:t=P:problem:mixed beam	!
8G\L	.	.	.	.	.	.	.	.	.	.	.	.	.	.	16ee\LL	16gg\LL
.	.	.	.	.	.	.	.	.	.	.	.	.	.	.	16dd\	16ff\
8C/J	.	.	.	.	.	.	.	.	.	.	.	.	.	.	16ee\	16gg\
.	.	.	.	.	.	.	.	.	.	.	.	.	.	.	16g/JJ	16dd\JJ
=10	=10	=10-	=10	=10	=10	=10	=10	=10	=10	=10	=10-	=10	=10-	=10	=10	=10
*	*	*^	*	*	*	*	*	*	*	*	*	*	*	*	*	*
!LO:TX:b:t=Canti	!	!	!	!	!	!	!	!	!	!	!	!	!	!	!	!	!
8r	.	8r	8ryy	.	.	1ryy	.	.	.	.	.	8r	.	8r	.	16ee\LL	16cc\LL
.	.	.	.	.	.	.	.	.	.	.	.	.	.	.	.	16dd\	16g\
!	!	!LO:TX:b:t=Canti	!	!	!	!	!	!	!	!	!	!	!	!	!	!	!
8GG/	.	8G\	8dL 8B/	.	.	.	.	.	.	.	.	8b\	Men-	8dd\	Men-	16ee\	16cc\
.	.	.	.	.	.	.	.	.	.	.	.	.	.	.	.	16ff\JJ	16dd\JJ
!	!	!	!	!	!	!	!	!	!	!	!	!	!	!	!	!	!LO:TX:a:t=P:problem:mixed beam
4GG/	.	8G\L	8dJ 8B/	.	.	.	.	.	.	.	.	8b\	-tes	8dd\	-tes	16gg\LL	16ee\LL
.	.	.	.	.	.	.	.	.	.	.	.	.	.	.	.	16ff\	16dd\
.	.	8G\J	8ryy	.	.	.	.	.	.	.	.	8b\	tu-	8dd\	tu-	16gg\	16ee\
.	.	.	.	.	.	.	.	.	.	.	.	.	.	.	.	16dd\JJ	16g/JJ
!LO:LB:g=original	!	!	!	!	!	!	!	!	!	!	!	!	!	!LO:LB:g=original	!	!	!
4C/	.	4C/	2ryy	.	.	.	.	.	.	.	.	16r	.	16r	.	16cc\LL	16ee\LL
.	.	.	.	.	.	.	.	.	.	.	.	16cc\LL	-o-	16ee\LL	-o-	16ee\	16gg\
.	.	.	.	.	.	.	.	.	.	.	.	16a\	.	16cc\	.	16dd\	16ff\
.	.	.	.	.	.	.	.	.	.	.	.	16b\JJ	.	16dd\JJ	.	16cc\JJ	16ee\JJ
!	!	!	!	!	!	!	!	!	!	!	!	!	!	!	!	!LO:TX:a:t=+	!LO:TX:a:t=+
!	!	!	!	!	!	!	!	!	!	!	!	!	!	!	!	!LO:TX:a:t=P:problem:w źródle łuczek nad "+"	!LO:TX:a:t=P:problem:w źródle łuczek nad "+"
!	!	!	!	!	!	!	!	!	!	!	!	!LO:LB:g=original	!	!	!	!	!
4r	.	4r	.	.	.	.	.	.	.	.	.	16cc\LL	.	16ee\LL	.	8.g/L	8.dd\L
.	.	.	.	.	.	.	.	.	.	.	.	16b\	.	16dd\	.	.	.
.	.	.	.	.	.	.	.	.	.	.	.	16cc\	.	16ee\	.	.	.
.	.	.	.	.	.	.	.	.	.	.	.	16a\JJ	.	16cc\JJ	.	16e/Jk	16cc\Jk
*	*	*v	*v	*	*	*	*	*	*	*	*	*	*	*	*	*	*
=11	=11	=11	=11	=11	=11	=11	=11	=11	=11	=11	=11	=11	=11	=11	=11	=11
!LO:TX:a:t=P:problem:mixed beam	!	!	!	!	!	!	!	!	!	!	!	!	!	!	!	!
8G\L	.	8GG/L	.	.	1ryy	.	.	.	.	.	16r	.	16r	.	00r	00r
.	.	.	.	.	.	.	.	.	.	.	16b\LL	-o-	16dd\LL	-o-	.	.
16GG/L	.	8AA/	.	.	.	.	.	.	.	.	16g\	.	16b\	.	.	.
16AA/J	.	.	.	.	.	.	.	.	.	.	16a\JJ	.	16cc\JJ	.	.	.
8BB/	.	8BB/	.	.	.	.	.	.	.	.	16b\LL	.	16dd\LL	.	.	.
.	.	.	.	.	.	.	.	.	.	.	16a\	.	16cc\	.	.	.
8GG/J	.	8GG/J	.	.	.	.	.	.	.	.	16b\	.	16dd\	.	.	.
.	.	.	.	.	.	.	.	.	.	.	16g\JJ	.	16b\JJ	.	.	.
4AA/	.	4A 4E 4C 4AA/	.	.	.	.	.	.	.	.	16r	.	16r	.	.	.
.	.	.	.	.	.	.	.	.	.	.	16a\LL	-o-	16cc\LL	-o-	.	.
.	.	.	.	.	.	.	.	.	.	.	16f#\	.	16a\	.	.	.
.	.	.	.	.	.	.	.	.	.	.	16g\JJ	.	16b\JJ	.	.	.
4r	.	4r	.	.	.	.	.	.	.	.	16a\LL	.	16cc\LL	.	.	.
.	.	.	.	.	.	.	.	.	.	.	16g\	.	16b\	.	.	.
.	.	.	.	.	.	.	.	.	.	.	16a\	.	16cc\	.	.	.
.	.	.	.	.	.	.	.	.	.	.	16f#X\JJ	.	16a\JJ	.	.	.
=12	=12	=12	=12	=12	=12	=12	=12	=12	=12	=12	=12	=12	=12	=12	=12	=12
!	!	!LO:TX:a:t=P:problem:mixed beam	!	!	!	!	!	!	!	!	!	!	!	!	!	!
8GG/L	.	8d\L 8B\ 8G\	.	.	1ryy	.	.	.	.	.	(<8g/L	-o-	16b\LL	-o-	.	.
.	.	.	.	.	.	.	.	.	.	.	.	.	16a\	.	.	.
8AA/	.	8BB/	.	.	.	.	.	.	.	.	8f/J)	.	16g\	.	.	.
.	.	.	.	.	.	.	.	.	.	.	.	.	16a\	.	.	.
8BB/	.	8C/	.	.	.	.	.	.	.	.	(>16g\LL	-rum	(>16b\	-rum	.	.
.	.	.	.	.	.	.	.	.	.	.	16b\	.	16dd\	.	.	.
8C/J	.	16AA/L	.	.	.	.	.	.	.	.	16a\)	.	16cc\)	.	.	.
.	.	16GG/JJ	.	.	.	.	.	.	.	.	16g\JJ	.	16b\JJ	.	.	.
!	!	!LO:LB:g=original	!	!	!	!	!	!	!	!	!	!	!	!	!	!
!	!	!LO:TX:a:t=P:problem:mixed beam	!	!	!	!	!	!	!	!	!	!	!	!	!	!
4D/	X #	8D\L	.	.	.	.	.	.	.	.	8.f/	Vi-	8.a\	Vi-	.	.
.	.	8DD/J	.	.	.	.	.	.	.	.	.	.	.	.	.	.
.	.	.	.	.	.	.	.	.	.	.	16f/	-ſi-	16a\	-ſi-	.	.
!	!	!	!LO:TX:a:t=P:problem:w źródle dodatkowa pauza 1-taktowa	!LO:TX:a:t=P:problem:w źródle dodatkowa pauza 1-taktowa	!	!	!	!	!	!	!	!	!	!	!	!
4GG/	.	4GG/	.	.	.	.	.	.	.	.	4g/	-ta	4g/	-ta	.	.
=13	=13	=13	=13-	=13	=13	=13	=13	=13	=13	=13	=13	=13	=13	=13	=13	=13
!LO:TX:b:t=Violini	!	!LO:TX:b:t=Violini	!	!	!	!	!	!	!	!	!	!	!	!	!	!
!	!	!	!	!	!	!	!LO:N:vis=00	!	!LO:N:vis=00	!	!	!	!	!	!	!
!	!	!	!	!	!	!	!LO:TX:a:t=P:problem:w źródle pauza 4-taktowa	!	!LO:TX:a:t=P:problem:w źródle pauza 4-taktowa	!	!	!	!	!	!	!
8r	.	8r	8r	8r	1ryy	.	0r	.	0r	.	00r	.	00r	.	.	.
8G\	.	16G\LL	8b\L	8dd\L	.	.	.	.	.	.	.	.	.	.	.	.
.	.	16G\JJ	.	.	.	.	.	.	.	.	.	.	.	.	.	.
!	!	!LO:TX:a:t=P:problem:mixed beam	!	!	!	!	!	!	!	!	!	!	!	!	!	!
4G\	.	16G\LL	8b\	8dd\	.	.	.	.	.	.	.	.	.	.	.	.
.	.	16GG/	.	.	.	.	.	.	.	.	.	.	.	.	.	.
.	.	16BB/	8b\J	8dd\J	.	.	.	.	.	.	.	.	.	.	.	.
.	.	16GG/JJ	.	.	.	.	.	.	.	.	.	.	.	.	.	.
!	!	!LO:TX:a:t=P:problem:mixed beam	!	!	!	!	!	!	!	!	!	!	!	!	!	!
4c\	.	16c\LL	16r	16r	.	.	.	.	.	.	.	.	.	.	.	.
.	.	16C/	16cc\LL	16ee\LL	.	.	.	.	.	.	.	.	.	.	.	.
.	.	16E/	16a\	16cc\	.	.	.	.	.	.	.	.	.	.	.	.
.	.	16C/JJ	16b\JJ	16dd\JJ	.	.	.	.	.	.	.	.	.	.	.	.
!	!	!	!LO:LB:g=original	!LO:LB:g=original	!	!	!	!	!	!	!	!	!	!	!	!
4r	.	4r	16cc\LL	16ee\LL	.	.	.	.	.	.	.	.	.	.	.	.
.	.	.	16b\	16dd\	.	.	.	.	.	.	.	.	.	.	.	.
.	.	.	16cc\	16ee\	.	.	.	.	.	.	.	.	.	.	.	.
.	.	.	16a\JJ	16cc\JJ	.	.	.	.	.	.	.	.	.	.	.	.
=14	=14	=14	=14	=14	=14	=14	=14	=14	=14	=14	=14	=14	=14	=14	=14	=14
!LO:TX:a:t=P:problem:mixed beam	!	!	!	!	!	!	!	!	!	!	!	!	!	!	!	!
8G\L	.	4d 4B 4G 4D 4AA 4DD/	16r	16r	1ryy	.	.	.	.	.	.	.	.	.	.	.
.	.	.	16b/LL	16dd\LL	.	.	.	.	.	.	.	.	.	.	.	.
8GG/	.	.	16g/	16b\	.	.	.	.	.	.	.	.	.	.	.	.
.	.	.	16a/JJ	16cc\JJ	.	.	.	.	.	.	.	.	.	.	.	.
8BB/	X 6	4r	16b/LL	16dd\LL	.	.	.	.	.	.	.	.	.	.	.	.
.	.	.	16a/	16cc\	.	.	.	.	.	.	.	.	.	.	.	.
8GG/J	.	.	16b/	16dd\	.	.	.	.	.	.	.	.	.	.	.	.
.	.	.	16g/JJ	16b\JJ	.	.	.	.	.	.	.	.	.	.	.	.
4AA/	.	4c 4A 4E 4C 4AA 4EE/	16r	16cc\LL	.	.	.	.	.	.	.	.	.	.	.	.
.	.	.	16a/LL	16b\	.	.	.	.	.	.	.	.	.	.	.	.
.	.	.	16f#X/	16a\	.	.	.	.	.	.	.	.	.	.	.	.
.	.	.	16g/JJ	16b\JJ	.	.	.	.	.	.	.	.	.	.	.	.
4r	.	4r	8a/L	16cc\LL	.	.	.	.	.	.	.	.	.	.	.	.
.	.	.	.	16b\	.	.	.	.	.	.	.	.	.	.	.	.
.	.	.	8f#X/J	16cc\	.	.	.	.	.	.	.	.	.	.	.	.
.	.	.	.	16a\JJ	.	.	.	.	.	.	.	.	.	.	.	.
=15	=15	=15	=15	=15	=15	=15	=15	=15	=15	=15	=15	=15	=15	=15	=15	=15
!LO:TX:a:t=P:problem:mixed beam	!	!	!	!	!	!	!	!	!	!	!	!	!	!	!	!
8G\L	.	16G\LL	8g/L	16b/LL	1ryy	.	1ryy	.	1ryy	.	.	.	.	.	00r	00r
.	.	16F#\	.	16a/	.	.	.	.	.	.	.	.	.	.	.	.
8GG/	.	16E\	8f#X/J	16g/	.	.	.	.	.	.	.	.	.	.	.	.
.	.	16D\JJ	.	16a/JJ	.	.	.	.	.	.	.	.	.	.	.	.
8BB/	.	16C/LL	16g/LL	16b\LL	.	.	.	.	.	.	.	.	.	.	.	.
.	.	16BB/	16b/	16dd\	.	.	.	.	.	.	.	.	.	.	.	.
8C/J	.	16AA/	16a/	16cc\	.	.	.	.	.	.	.	.	.	.	.	.
.	.	16GG/JJ	16g/JJ	16b\JJ	.	.	.	.	.	.	.	.	.	.	.	.
!	!	!LO:TX:a:t=P:problem:mixed beam	!	!	!	!	!	!	!	!	!	!	!	!	!	!
4D/	X #	16D\LL	8.f#X/L	8.a/L	.	.	.	.	.	.	.	.	.	.	.	.
.	.	16C\	.	.	.	.	.	.	.	.	.	.	.	.	.	.
.	.	16D\	.	.	.	.	.	.	.	.	.	.	.	.	.	.
.	.	16DD/JJ	16f#/Jk	16a/Jk	.	.	.	.	.	.	.	.	.	.	.	.
!	!	!LO:TX:a:t=P:problem:mixed beam	!	!	!	!	!	!	!	!	!	!	!	!	!	!
4G\	.	16G\LL	4g/	4g/	.	.	.	.	.	.	.	.	.	.	.	.
.	.	16F#\	.	.	.	.	.	.	.	.	.	.	.	.	.	.
.	.	16G\	.	.	.	.	.	.	.	.	.	.	.	.	.	.
.	.	16GG/JJ	.	.	.	.	.	.	.	.	.	.	.	.	.	.
=16	=16	=16	=16	=16	=16	=16	=16-	=16	=16-	=16	=16	=16	=16	=16	=16	=16
*	*	*clefC4	*	*	*	*	*	*	*	*	*	*	*	*	*	*
*	*	*^	*	*	*	*	*	*	*	*	*	*	*	*	*	*
!	!	!LO:TX:b:t=A T.	!	!	!	!	!	!	!	!	!	!	!	!	!	!	!
8r	.	8r	2ryy	00r	00r	1ryy	.	8r	.	8r	.	.	.	.	.	.	.
!LO:TX:b:t=Alto Tenore	!	!	!	!	!	!	!	!	!	!	!	!	!	!	!	!	!
8C/	.	8gL 8e 8c 8E 8C/	.	.	.	.	.	8e\	Men-	8g\	Men-	.	.	.	.	.	.
4C/	.	8g 8e 8c 8E 8C/	.	.	.	.	.	8e\	-tes	8g\	-tes	.	.	.	.	.	.
.	.	8gJ 8e 8c 8E 8C/	.	.	.	.	.	8e\	tu-	8g\	tu-	.	.	.	.	.	.
!	!	!	!LO:TX:a:t=P:problem:mixed beam	!	!	!	!	!	!	!	!	!	!	!	!	!	!
4F\	.	8a/	8f\L	.	.	.	.	16r	.	16r	.	.	.	.	.	.	.
.	.	.	.	.	.	.	.	16f\LL	-o-	16a\LL	-o-	.	.	.	.	.	.
*	*	*	*clefF4	*	*	*	*	*	*	*	*	*	*	*	*	*	*
.	.	8ryy	16F\L	.	.	.	.	16d\	.	16f\	.	.	.	.	.	.	.
.	.	.	16FF/JJ	.	.	.	.	16e\JJ	.	16g\JJ	.	.	.	.	.	.	.
4r	.	4r	4ryy	.	.	.	.	16f\LL	.	16a\LL	.	.	.	.	.	.	.
.	.	.	.	.	.	.	.	16e\	.	16g\	.	.	.	.	.	.	.
.	.	.	.	.	.	.	.	16f\	.	16a\	.	.	.	.	.	.	.
.	.	.	.	.	.	.	.	16d\JJ	.	16f\JJ	.	.	.	.	.	.	.
*	*	*v	*v	*	*	*	*	*	*	*	*	*	*	*	*	*	*
!	!	!LO:LB:g=original	!	!	!	!	!	!	!	!	!	!	!	!	!	!
=17	=17	=17	=17	=17	=17	=17	=17	=17	=17	=17	=17	=17	=17	=17	=17	=17
4C/	.	16C/LL	.	.	1ryy	.	16r	.	16r	.	00r	.	00r	.	.	.
.	.	16BB/	.	.	.	.	16e\LL	-o-	16g\LL	-o-	.	.	.	.	.	.
.	.	16C/	.	.	.	.	16c\	.	16e\	.	.	.	.	.	.	.
.	.	16D/JJ	.	.	.	.	16d\JJ	.	16f\JJ	.	.	.	.	.	.	.
4r	.	16E\LL	.	.	.	.	16e\LL	.	16g\LL	.	.	.	.	.	.	.
.	.	16D\	.	.	.	.	16d\	.	16f\	.	.	.	.	.	.	.
.	.	16E\	.	.	.	.	16e\	.	16g\	.	.	.	.	.	.	.
.	.	16C\JJ	.	.	.	.	16c\JJ	.	16e\JJ	.	.	.	.	.	.	.
4D/	.	16D\LL	.	.	.	.	16r	.	16r	.	.	.	.	.	.	.
.	.	16C\	.	.	.	.	16d\LL	-o-	16f\LL	-o-	.	.	.	.	.	.
.	.	16D\	.	.	.	.	16B\	.	16d\	.	.	.	.	.	.	.
.	.	16E\JJ	.	.	.	.	16c\JJ	.	16e\JJ	.	.	.	.	.	.	.
4r	.	16F\LL	.	.	.	.	16d\LL	.	16f\LL	.	.	.	.	.	.	.
.	.	16E\	.	.	.	.	16c\	.	16e\	.	.	.	.	.	.	.
.	.	16F\	.	.	.	.	16d\	.	16f\	.	.	.	.	.	.	.
.	.	16D\JJ	.	.	.	.	16B\JJ	.	16d\JJ	.	.	.	.	.	.	.
!LO:LB:g=original	!	!	!	!	!	!	!LO:LB:g=original	!	!	!	!	!	!	!	!	!
=18	=18	=18	=18	=18	=18	=18	=18-	=18	=18	=18	=18	=18	=18	=18	=18	=18
4C/	.	8C/L	.	.	1ryy	.	(>8c\L	-o-	16e\LL	.	.	.	.	.	.	.
.	.	.	.	.	.	.	.	.	16d\	.	.	.	.	.	.	.
.	.	8D/J	.	.	.	.	8B\J)	.	16c\	.	.	.	.	.	.	.
.	.	.	.	.	.	.	.	.	16d\JJ	.	.	.	.	.	.	.
!	!	!	!	!	!	!	!	!	!LO:LB:g=original	!	!	!	!	!	!	!
8EE/L	.	16E\LL	.	.	.	.	16c\LL	-rum	16e\LL	-rum	.	.	.	.	.	.
.	.	16C\	.	.	.	.	16e\	.	16g\	.	.	.	.	.	.	.
8FF/J	.	16E\	.	.	.	.	16d\	.	16f\	.	.	.	.	.	.	.
.	.	16F\JJ	.	.	.	.	16c\JJ	.	16e\JJ	.	.	.	.	.	.	.
!	!	!LO:TX:a:t=P:problem:mixed beam	!	!	!	!	!	!	!	!	!	!	!	!	!	!
!	!	!	!	!	!	!	!LO:TX:a:t=+	!	!LO:TX:a:t=+	!	!	!	!	!	!	!
!	!	!	!	!	!	!	!LO:TX:a:t=P:problem:w źródle łuczek nad "+"	!	!LO:TX:a:t=P:problem:w źródle łuczek nad "+"	!	!	!	!	!	!	!
4GG/	X 43	8G\L	.	.	.	.	8.B\	Vi-	8.d\	Vi-	.	.	.	.	.	.
.	.	8GG/J	.	.	.	.	.	.	.	.	.	.	.	.	.	.
.	.	.	.	.	.	.	16B\	-ſi-	16d\	ſi-	.	.	.	.	.	.
!	!	!	!	!	!	!	!	!	!	!	!	!	!	!	!LO:TX:a:t=P:problem:w źródle dodatkowa pauza 1-taktowa	!LO:TX:a:t=P:problem:w źródle dodatkowa pauza 1-taktowa
4C/	.	4C/	.	.	.	.	4c\	-ta	4c/	-ta	.	.	.	.	.	.
=19	=19	=1	=19	=19	=19	=19	=19	=19	=19	=19	=19	=19	=19	=19	=19-	=19
!LO:TX:b:t=Clarini.	!	!	!	!	!	!	!	!	!	!	!	!	!	!	!	!
8r	.	0r	.	.	1ryy	.	00r	.	00r	.	.	.	.	.	8r	8r
8C/	.	.	.	.	.	.	.	.	.	.	.	.	.	.	16ee\LL	16gg\LL
.	.	.	.	.	.	.	.	.	.	.	.	.	.	.	16ee\J	16gg\J
4C/	.	.	.	.	.	.	.	.	.	.	.	.	.	.	8ee\	8gg\
.	.	.	.	.	.	.	.	.	.	.	.	.	.	.	8ee\J	8gg\J
4F\	.	.	.	.	.	.	.	.	.	.	.	.	.	.	16r	16r
.	.	.	.	.	.	.	.	.	.	.	.	.	.	.	16ff\LL	16aa\LL
.	.	.	.	.	.	.	.	.	.	.	.	.	.	.	16dd\	16ff\
.	.	.	.	.	.	.	.	.	.	.	.	.	.	.	16ee\JJ	16gg\JJ
4r	.	.	.	.	.	.	.	.	.	.	.	.	.	.	16ff\LL	16aa\LL
.	.	.	.	.	.	.	.	.	.	.	.	.	.	.	16ee\	16gg\
.	.	.	.	.	.	.	.	.	.	.	.	.	.	.	16ff\	16aa\
.	.	.	.	.	.	.	.	.	.	.	.	.	.	.	16dd\JJ	16ff\JJ
=20	=20	=20	=20	=20	=20	=20	=20	=20	=20	=20	=20	=20	=20	=20	=20	=20
4C/	.	.	00r	00r	1ryy	.	.	.	.	.	.	.	.	.	16ee\LL	16gg\LL
.	.	.	.	.	.	.	.	.	.	.	.	.	.	.	16dd\	16ff\
.	.	.	.	.	.	.	.	.	.	.	.	.	.	.	16cc\	16ee\
.	.	.	.	.	.	.	.	.	.	.	.	.	.	.	16dd\JJ	16ff\JJ
4r	.	.	.	.	.	.	.	.	.	.	.	.	.	.	16ee\LL	16gg\LL
.	.	.	.	.	.	.	.	.	.	.	.	.	.	.	16dd\	16ff\
.	.	.	.	.	.	.	.	.	.	.	.	.	.	.	16ee\	16gg\
.	.	.	.	.	.	.	.	.	.	.	.	.	.	.	16cc\JJ	16ee\JJ
!	!	!	!	!	!	!	!	!	!	!	!	!	!	!	!	!LO:LB:g=original
4D/	.	.	.	.	.	.	.	.	.	.	.	.	.	.	16dd\LL	16ff\LL
.	.	.	.	.	.	.	.	.	.	.	.	.	.	.	16cc\	16ee\
.	.	.	.	.	.	.	.	.	.	.	.	.	.	.	16g\	16dd\
.	.	.	.	.	.	.	.	.	.	.	.	.	.	.	16cc\JJ	16ee\JJ
!	!	!	!	!	!	!	!	!	!	!	!	!	!	!	!LO:LB:g=original	!
!	!	!	!	!	!	!	!	!	!	!	!	!	!	!	!LO:TX:a:t=P:problem:mixed beam	!
4r	.	.	.	.	.	.	.	.	.	.	.	.	.	.	16dd\LL	16ff\LL
.	.	.	.	.	.	.	.	.	.	.	.	.	.	.	16cc\	16ee\
.	.	.	.	.	.	.	.	.	.	.	.	.	.	.	16dd\	16ff\
.	.	.	.	.	.	.	.	.	.	.	.	.	.	.	16g/JJ	16dd\JJ
=21	=21	=21	=21	=21	=21	=21	=21	=21	=21	=21	=21	=21	=21	=21	=21	=21
4C/	.	1r	.	.	1ryy	.	.	.	.	.	1r	.	1r	.	16cc\LL	16ee\LL
.	.	.	.	.	.	.	.	.	.	.	.	.	.	.	16g\	16dd\
.	.	.	.	.	.	.	.	.	.	.	.	.	.	.	16e\	16cc\
.	.	.	.	.	.	.	.	.	.	.	.	.	.	.	16g\JJ	16dd\JJ
8E\L	.	.	.	.	.	.	.	.	.	.	.	.	.	.	16cc\LL	16ee\LL
.	.	.	.	.	.	.	.	.	.	.	.	.	.	.	16ee\	16gg\
8F\J	.	.	.	.	.	.	.	.	.	.	.	.	.	.	16dd\	16ff\
.	.	.	.	.	.	.	.	.	.	.	.	.	.	.	16cc\JJ	16ee\JJ
!LO:TX:a:t=P:problem:mixed beam	!	!	!	!	!	!	!	!	!	!	!	!	!	!	!LO:TX:a:t=+	!LO:TX:a:t=+
!	!	!	!	!	!	!	!	!	!	!	!	!	!	!	!LO:TX:a:t=P:problem:w źródle łuczek nad "+"	!LO:TX:a:t=P:problem:w źródle łuczek nad "+"
8G\L	X 43	.	.	.	.	.	.	.	.	.	.	.	.	.	8.g/L	8.dd\L
8GG/J	.	.	.	.	.	.	.	.	.	.	.	.	.	.	.	.
.	.	.	.	.	.	.	.	.	.	.	.	.	.	.	16g/Jk	16dd\Jk
4C/	.	.	.	.	.	.	.	.	.	.	.	.	.	.	4e/	4cc\
=22	=22	=22-	=22	=22	=22	=22	=22	=22	=22	=22	=22-	=22	=22-	=22	=22	=22
*	*	*^	*	*	*	*	*	*	*	*	*	*	*	*	*	*
!LO:TX:b:t=Canti	!	!	!	!	!	!	!	!	!	!	!	!	!	!	!	!	!
*	*	*clefC4	*	*	*	*	*	*	*	*	*	*	*	*	*	*	*
4GG/	.	4d 4B 4G/	4ryy	.	.	1ryy	.	.	.	.	.	8r	.	8r	.	00r	00r
.	.	.	.	.	.	.	.	.	.	.	.	8b\	-Im-	8dd\	-Im-	.	.
8C/L	.	8eL 8c 8E 8C/	4ryy	.	.	.	.	.	.	.	.	8cc\	-ple	8ee\	-ple	.	.
8GG/J	.	8dJ 8B 8G/	.	.	.	.	.	.	.	.	.	8b\	ſu-	8dd\	ſu-	.	.
8AA/L	.	8c/L	8A\L	.	.	.	.	.	.	.	.	(>16a\LL	-per-	(>16cc\LL	-per-	.	.
.	.	.	.	.	.	.	.	.	.	.	.	16b\)	.	16dd\)	.	.	.
16BB/L	.	8B/J	8G\J	.	.	.	.	.	.	.	.	(>16a\	-na	(>16cc\	-na	.	.
16C/JJ	.	.	.	.	.	.	.	.	.	.	.	16g\JJ)	.	16b\JJ)	.	.	.
!	!	!	!	!	!	!	!	!	!	!	!	!	!	!LO:TX:a:t=+	!	!	!
!	!	!	!	!	!	!	!	!	!	!	!	!	!	!LO:TX:a:t=P:problem:	!	!	!
4D/	X #	16D/LL	4reyy	.	.	.	.	.	.	.	.	8.f/	gra-	8.a\	gra-	.	.
.	.	16E/	.	.	.	.	.	.	.	.	.	.	.	.	.	.	.
.	.	16F/	.	.	.	.	.	.	.	.	.	.	.	.	.	.	.
.	.	16D/JJ	.	.	.	.	.	.	.	.	.	16f/	-ti-	16a\	-ti-	.	.
*	*	*v	*v	*	*	*	*	*	*	*	*	*	*	*	*	*	*
!	!	!	!	!	!	!	!	!	!	!	!	!	!LO:LB:g=original	!	!	!
=23	=23	=23	=23	=23	=23	=23	=23	=23	=23	=23	=23-	=23	=23	=23	=23	=23
*	*	*clefF4	*	*	*	*	*	*	*	*	*	*	*	*	*	*
!	!	!LO:TX:a:t=P:problem:mixed beam	!	!	!	!	!	!	!	!	!	!	!	!	!	!
4GG/	.	8G\L	.	.	1ryy	.	0r	.	0r	.	8g/	-a	8g/	-a	.	.
.	.	8GG/	.	.	.	.	.	.	.	.	8b\	quae	8dd\	quae	.	.
8C/L	.	8C/	.	.	.	.	.	.	.	.	8cc\	tu	(>16ee\LL	tu	.	.
.	.	.	.	.	.	.	.	.	.	.	.	.	16dd\)	.	.	.
8GG/J	.	8GG/J	.	.	.	.	.	.	.	.	8b\	Cre-	(>16ee\	cre-	.	.
.	.	.	.	.	.	.	.	.	.	.	.	.	16dd\JJ)	.	.	.
8AA/L	.	8AA/L	.	.	.	.	.	.	.	.	(>16a\LL	-a-	(>16cc\LL	-a-	.	.
.	.	.	.	.	.	.	.	.	.	.	16b\)	.	16dd\)	.	.	.
16BB/L	.	16BB/L	.	.	.	.	.	.	.	.	(>16a\	-ſti	(>16cc\	-ſti	.	.
16C/JJ	.	16C/JJ	.	.	.	.	.	.	.	.	16g\JJ)	.	16b\JJ)	.	.	.
!	!	!LO:LB:g=original	!	!	!	!	!	!	!	!	!	!	!	!	!	!
4D/	X #	16D/LL	.	.	.	.	.	.	.	.	8.f#/	pe-	8.a\	pe-	.	.
.	.	16C/	.	.	.	.	.	.	.	.	.	.	.	.	.	.
.	.	16BB/	.	.	.	.	.	.	.	.	.	.	.	.	.	.
.	.	16AA/JJ	.	.	.	.	.	.	.	.	16f#/	-cto-	16a\	-cto-	.	.
=24	=24	=24	=24-	=24	=24	=24	=24	=24	=24	=24	=24	=24	=24	=24	=24	=24
4G\	.	4GG/	8r	8r	1ryy	.	.	.	.	.	4g/	-ra.	4g/	-ra	.	.
!	!	!LO:TX:b:t=Violini	!	!	!	!	!	!	!	!	!	!	!	!	!	!
.	.	.	8b\	8dd\	.	.	.	.	.	.	.	.	.	.	.	.
8c\L	.	8c\L	8cc\L	8ee\L	.	.	.	.	.	.	4r	.	4r	.	.	.
8G\J	.	8G\J	8b\J	8dd\J	.	.	.	.	.	.	.	.	.	.	.	.
8A\L	.	16A\LL	16a/LL	16cc\LL	.	.	.	.	.	.	2r	.	2r	.	.	.
.	.	16B\	16b/	16dd\	.	.	.	.	.	.	.	.	.	.	.	.
8G\J	.	16A\	16a/	16cc\	.	.	.	.	.	.	.	.	.	.	.	.
.	.	16G\JJ	16g/JJ	16b\JJ	.	.	.	.	.	.	.	.	.	.	.	.
4D/	X #	16D\LL	8.f#X/L	8.a/L	.	.	.	.	.	.	.	.	.	.	.	.
.	.	16E\	.	.	.	.	.	.	.	.	.	.	.	.	.	.
.	.	16F\	.	.	.	.	.	.	.	.	.	.	.	.	.	.
.	.	16D\JJ	16f#/Jk	16a/Jk	.	.	.	.	.	.	.	.	.	.	.	.
!LO:LB:g=original	!	!	!	!	!	!	!	!	!	!	!	!	!	!	!	!
=25	=25	=25	=25	=25	=25	=25	=25	=25	=25	=25	=25-	=25	=25-	=25	=25	=25
!	!	!LO:TX:a:t=P:problem:mixed beam	!	!LO:TX:a:t=P:problem:mixed beam	!	!	!	!	!	!	!	!	!	!	!	!
4GG/	.	8G\L	8g/L	8g/L	1ryy	.	1r	.	1r	.	00r	.	00r	.	.	.
.	.	8GG/J	8b/	8dd\	.	.	.	.	.	.	.	.	.	.	.	.
*	*	*clefC4	*	*	*	*	*	*	*	*	*	*	*	*	*	*
8C/L	.	8eL 8c 8E 8C/	8cc/	8ee\	.	.	.	.	.	.	.	.	.	.	.	.
8GG/J	.	8dJ 8B 8G/	8b/J	8dd\J	.	.	.	.	.	.	.	.	.	.	.	.
!	!	!	!LO:LB:g=original	!LO:LB:g=original	!	!	!	!	!	!	!	!	!	!	!	!
8AA/L	.	8cL 8A/	16a/LL	16cc\LL	.	.	.	.	.	.	.	.	.	.	.	.
.	.	.	16b/	16dd\	.	.	.	.	.	.	.	.	.	.	.	.
16BB/L	.	8BJ 8G/	16a/	16cc\	.	.	.	.	.	.	.	.	.	.	.	.
16C/JJ	.	.	16g/JJ	16b\JJ	.	.	.	.	.	.	.	.	.	.	.	.
4D/	X #	8A/L	8.f#X/L	8.a/L	.	.	.	.	.	.	.	.	.	.	.	.
.	.	8AA/J	.	.	.	.	.	.	.	.	.	.	.	.	.	.
.	.	.	16f#/Jk	16a/Jk	.	.	.	.	.	.	.	.	.	.	.	.
=26	=26	=26	=26	=26	=26	=26	=26-	=26	=26-	=26	=26	=26	=26	=26	=26	=26
*	*	*^	*	*	*	*	*	*	*	*	*	*	*	*	*	*
!LO:TX:b:t=Alto Tenore	!	!	!	!	!	!	!	!	!	!	!	!	!	!	!	!	!
8GG/L	.	8D/L	4ryy	4g/	4g/	1ryy	.	8r	.	8r	.	.	.	.	.	0r	0r
8C/J	.	8G/J	.	.	.	.	.	8e\	im-	8g\	im-	.	.	.	.	.	.
4F\	.	4g 4e 4c/	4G 4E 4C\	4r	4r	.	.	8f\	-ple	8a\	-ple	.	.	.	.	.	.
.	.	.	.	.	.	.	.	8f\	ſu-	8a\	ſu-	.	.	.	.	.	.
4D\	.	4A/	2ryy	2r	2r	.	.	8d\	-per-	8f\	-per-	.	.	.	.	.	.
.	.	.	.	.	.	.	.	8d\	-na	8f\	-na	.	.	.	.	.	.
4C/	.	4G/	.	.	.	.	.	(>16e\LL	gra-	(16g\LL	gra-	.	.	.	.	.	.
.	.	.	.	.	.	.	.	16f\JJ)	.	16a\JJ)	.	.	.	.	.	.	.
.	.	.	.	.	.	.	.	16e\	.	16g\	.	.	.	.	.	.	.
.	.	.	.	.	.	.	.	16d\	-ti-	16f\	-ti-	.	.	.	.	.	.
*	*	*v	*v	*	*	*	*	*	*	*	*	*	*	*	*	*	*
=27	=27	=27	=27-	=27-	=27	=27	=27	=27	=27	=27	=27	=27	=27	=27	=27	=27
4C/	.	16G\LL	00r	00r	1ryy	.	8c\	-a	8e\	-a	.	.	.	.	.	.
.	.	16A\	.	.	.	.	.	.	.	.	.	.	.	.	.	.
.	.	16B\	.	.	.	.	8e\	quae	8g\	quae	.	.	.	.	.	.
.	.	16G\JJ	.	.	.	.	.	.	.	.	.	.	.	.	.	.
8F\L	.	16c\LL	.	.	.	.	(>16f\LL	tu	(16a\LL	tu	.	.	.	.	.	.
.	.	16B\	.	.	.	.	16e\)	.	16g\)	.	.	.	.	.	.	.
8C\J	.	16A\	.	.	.	.	(>16d\	.	(16f\	cre-	.	.	.	.	.	.
.	.	16G\JJ	.	.	.	.	16c\JJ)	cre-	16e\JJ)	.	.	.	.	.	.	.
8D\L	.	8A\L	.	.	.	.	8B\	-a-	8d\	-a-	.	.	.	.	.	.
16E\L	.	16B\L	.	.	.	.	8c\	-ſti	8e\	-ſti	.	.	.	.	.	.
16F\JJ	.	16c\JJ	.	.	.	.	.	.	.	.	.	.	.	.	.	.
!LO:TX:a:t=P:problem:mixed beam	!	!LO:TX:a:t=P:problem:mixed beam	!	!	!	!	!	!	!	!	!	!	!	!	!	!
!	!	!	!	!	!	!	!	!	!LO:TX:a:t=+	!	!	!	!	!	!	!
!	!	!	!	!	!	!	!	!	!LO:TX:a:t=P:problem:w źródle łuczek nad "+"	!	!	!	!	!	!	!
8G\L	.	8d\L	.	.	.	.	8.B\	pe-	8.d\	pe-	.	.	.	.	.	.
8GG/J	.	8D/J	.	.	.	.	.	.	.	.	.	.	.	.	.	.
.	.	.	.	.	.	.	16B\	-cto-	16d\	-cto-	.	.	.	.	.	.
!	!	!LO:LB:g=original	!	!	!	!	!	!	!	!	!	!	!	!	!	!
=28	=28	=28	=28	=28	=28	=28	=28	=28	=28	=28	=28	=28	=28	=28	=28-	=28-
*	*	*clefF4	*	*	*	*	*	*	*	*	*	*	*	*	*	*
!LO:TX:b:t=Clarini	!	!	!	!	!	!	!	!	!	!	!	!	!	!	!	!
4C/	.	4C	.	.	1ryy	.	4c\	-ra	4c/	-ra.	.	.	.	.	8r	8r
.	.	.	.	.	.	.	.	.	.	.	.	.	.	.	16ee\LL	16gg\LL
.	.	.	.	.	.	.	.	.	.	.	.	.	.	.	16ee\J	16gg\J
4F\	.	4r	.	.	.	.	4r	.	4r	.	.	.	.	.	8ff\	8aa\
.	.	.	.	.	.	.	.	.	.	.	.	.	.	.	8ff\J	8aa\J
4D\	.	2r	.	.	.	.	2r	.	2r	.	.	.	.	.	8dd\L	8ff\L
.	.	.	.	.	.	.	.	.	.	.	.	.	.	.	8dd\J	8ff\J
4C\	.	.	.	.	.	.	.	.	.	.	.	.	.	.	16ee\LL	16gg\LL
.	.	.	.	.	.	.	.	.	.	.	.	.	.	.	16ff\	16aa\
.	.	.	.	.	.	.	.	.	.	.	.	.	.	.	16ee\	16gg\
.	.	.	.	.	.	.	.	.	.	.	.	.	.	.	16dd\JJ	16ff\JJ
=29	=29	=29-	=29	=29	=29	=29	=29-	=29	=29-	=29	=29	=29	=29	=29	=29	=29
16C\LL	.	1r	.	.	1ryy	.	00r	.	00r	.	1r	.	1r	.	8cc\L	8ee\L
16D\	.	.	.	.	.	.	.	.	.	.	.	.	.	.	.	.
16E\	.	.	.	.	.	.	.	.	.	.	.	.	.	.	16ee\L	16gg\L
16C\JJ	.	.	.	.	.	.	.	.	.	.	.	.	.	.	16ee\JJ	16gg\JJ
!	!	!	!	!	!	!	!	!	!	!	!	!	!	!	!LO:TX:a:t=P:problem:mixed beam	!
8F\L	.	.	.	.	.	.	.	.	.	.	.	.	.	.	16ee\LL	16gg\LL
.	.	.	.	.	.	.	.	.	.	.	.	.	.	.	16dd\	16ff\
8C\J	.	.	.	.	.	.	.	.	.	.	.	.	.	.	16ee\	16gg\
.	.	.	.	.	.	.	.	.	.	.	.	.	.	.	16g/JJ	16dd\JJ
8D\L	.	.	.	.	.	.	.	.	.	.	.	.	.	.	16cc\LL	16ee\LL
.	.	.	.	.	.	.	.	.	.	.	.	.	.	.	16ee\	16gg\
16E\L	.	.	.	.	.	.	.	.	.	.	.	.	.	.	16dd\	16ff\
16F\JJ	.	.	.	.	.	.	.	.	.	.	.	.	.	.	16cc\JJ	16ee\JJ
!	!	!	!	!	!	!	!	!	!	!	!	!	!	!	!	!LO:LB:g=original
4G\	.	.	.	.	.	.	.	.	.	.	.	.	.	.	8g/L	8dd\L
.	.	.	.	.	.	.	.	.	.	.	.	.	.	.	16g/L	16dd\L
.	.	.	.	.	.	.	.	.	.	.	.	.	.	.	16g/JJ	16dd\JJ
=30	=30	=30-	=30	=30	=30	=30	=30	=30	=30	=30	=30-	=30	=30-	=30	=30	=30
!	!	!LO:TX:a:t=P:problem:mixed beam	!	!	!	!	!	!	!	!	!	!	!	!	!	!
!	!	!LO:TX:b:t=Canti	!	!	!	!	!	!	!	!	!	!	!	!	!	!
4C/	.	8c\L	.	.	1ryy	.	.	.	.	.	4r	.	16cc\LL	quae	4e/	4cc\
.	.	.	.	.	.	.	.	.	.	.	.	.	16b\	.	.	.
.	.	8C/	.	.	.	.	.	.	.	.	.	.	16cc\	.	.	.
.	.	.	.	.	.	.	.	.	.	.	.	.	16dd\JJ	.	.	.
!LO:TX:b:t=Canti	!	!	!	!	!	!	!	!	!	!	!	!	!	!	!	!
4r	.	8E/	.	.	.	.	.	.	.	.	16cc\LL	quae	16ee\LL	.	4r	4r
.	.	.	.	.	.	.	.	.	.	.	16b\	.	16dd\	.	.	.
.	.	8C/J	.	.	.	.	.	.	.	.	16cc\	.	16ee\	.	.	.
.	.	.	.	.	.	.	.	.	.	.	16dd\JJ	.	16ff\JJ	.	.	.
4C/	.	16C\LL	.	.	.	.	.	.	.	.	8ee\	tu	8gg\	tu	2r	2r
.	.	16D\	.	.	.	.	.	.	.	.	.	.	.	.	.	.
.	.	16E\	.	.	.	.	.	.	.	.	8ee\	cre-	8gg\	cre-	.	.
.	.	16F\JJ	.	.	.	.	.	.	.	.	.	.	.	.	.	.
!	!	!LO:TX:a:t=P:problem:mixed beam	!	!	!	!	!	!	!	!	!	!	!	!	!	!
8C/L	.	8G\L	.	.	.	.	.	.	.	.	(>16ee\LL	-a-	(>16gg\LL	-a-	.	.
.	.	.	.	.	.	.	.	.	.	.	16dd\)	.	16ff\)	.	.	.
8GG/J	.	8GG/J	.	.	.	.	.	.	.	.	(>16ee\	-ſti	(>16gg\	-ſti	.	.
.	.	.	.	.	.	.	.	.	.	.	16b\JJ)	.	16dd\JJ)	.	.	.
!	!	!	!	!	!	!	!	!	!	!	!	!	!	!	!LO:LB:g=original	!
=31	=31	=31	=31	=31	=31	=31	=31	=31	=31	=31	=31	=31	=31	=31	=31	=31
*	*	*	*	*	*	*	*	*	*	*	*	*ij	*	*ij	*	*
4C/	.	4C/	0r	0r	1ryy	.	.	.	.	.	8gg\	tu	8ee\	tu	00r	00r
.	.	.	.	.	.	.	.	.	.	.	8gg\	cre-	8ee\	cre-	.	.
!	!	!LO:TX:a:t=P:problem:mixed beam	!	!	!	!	!	!	!	!	!	!	!	!	!	!
8C/L	.	8C/L	.	.	.	.	.	.	.	.	16gg\LL	-a-	16ee\LL	-a-	.	.
.	.	.	.	.	.	.	.	.	.	.	16ff\	.	16dd\	.	.	.
8GG/J	.	8G\J	.	.	.	.	.	.	.	.	16gg\	-ſti	16ee\	-ſti	.	.
*	*	*	*	*	*	*	*	*	*	*	*	*Xij	*	*Xij	*	*
.	.	.	.	.	.	.	.	.	.	.	16dd\JJ	.	16b\JJ	.	.	.
4AA/	5 3	4A\	.	.	.	.	.	.	.	.	8cc\	tu	8ee\	tu	.	.
.	.	.	.	.	.	.	.	.	.	.	8b\	cre-	8dd\	cre-	.	.
4r	.	4r	.	.	.	.	.	.	.	.	8a\	-a-	8cc\	-a-	.	.
.	.	.	.	.	.	.	.	.	.	.	8cc\	-ſti	8ee\	-ſti	.	.
!LO:LB:g=original	!	!	!	!	!	!	!	!	!	!	!LO:LB:g=original	!	!	!	!	!
=32	=32	=32	=32	=32	=32	=32	=32	=32	=32	=32	=32	=32	=32	=32	=32	=32
*	*	*	*	*	*	*	*	*	*	*	*	*ij	*	*	*	*
4G\	.	16G\LL	.	.	1ryy	.	.	.	.	.	8b\	tu	8dd\	tu	.	.
.	.	16F\	.	.	.	.	.	.	.	.	.	.	.	.	.	.
.	.	16E\	.	.	.	.	.	.	.	.	8b\	cre-	8dd\	cre-	.	.
.	.	16D\JJ	.	.	.	.	.	.	.	.	.	.	.	.	.	.
!	!	!	!	!	!	!	!	!	!	!	!	!	!LO:LB:g=original	!	!	!
4C/	.	16C\LL	.	.	.	.	.	.	.	.	8cc\	-a-	(>16ee\LL	-a-	.	.
.	.	16D\	.	.	.	.	.	.	.	.	.	.	16dd\)	.	.	.
.	.	16E\	.	.	.	.	.	.	.	.	8cc\	-ſti	(>16ff\	-ſti	.	.
*	*	*	*	*	*	*	*	*	*	*	*	*Xij	*	*	*	*
.	.	16F\JJ	.	.	.	.	.	.	.	.	.	.	16ee\JJ)	.	.	.
!	!	!LO:TX:a:t=P:problem:mixed beam	!	!	!	!	!	!	!	!	!	!	!	!	!	!
4G\	X 43	8G\L	.	.	.	.	.	.	.	.	8.b\	pe-	8.dd\	pe-	.	.
.	.	8GG/J	.	.	.	.	.	.	.	.	.	.	.	.	.	.
.	.	.	.	.	.	.	.	.	.	.	16b\	-cto-	16dd\	-cto-	.	.
4C/	.	4C/	.	.	.	.	.	.	.	.	4cc\	-ra	4cc\	-ra	.	.
=33	=33	=33	=33-	=33-	=33	=33	=33	=33	=33	=33	=33	=33	=33	=33	=33	=33
!LO:TX:b:t=Clarini	!	!	!	!	!	!	!	!	!	!	!	!	!	!	!	!
4c\	.	0r	4r	16cc\LL	1ryy	.	0r	.	0r	.	0r	.	0r	.	.	.
.	.	.	.	16b\	.	.	.	.	.	.	.	.	.	.	.	.
.	.	.	.	16cc\	.	.	.	.	.	.	.	.	.	.	.	.
.	.	.	.	16dd\JJ	.	.	.	.	.	.	.	.	.	.	.	.
4r	.	.	16cc\LL	16ee\LL	.	.	.	.	.	.	.	.	.	.	.	.
.	.	.	16b\	16dd\	.	.	.	.	.	.	.	.	.	.	.	.
.	.	.	16cc\	16ee\	.	.	.	.	.	.	.	.	.	.	.	.
.	.	.	16dd\JJ	16ff\JJ	.	.	.	.	.	.	.	.	.	.	.	.
8c\L	.	.	8ee\L	8gg\L	.	.	.	.	.	.	.	.	.	.	.	.
8c\	.	.	8ee\	8gg\J	.	.	.	.	.	.	.	.	.	.	.	.
8c\	.	.	16ee\L	16gg\LL	.	.	.	.	.	.	.	.	.	.	.	.
.	.	.	16dd\	16ff\	.	.	.	.	.	.	.	.	.	.	.	.
8B\J	X 6	.	16ee\	16gg\	.	.	.	.	.	.	.	.	.	.	.	.
.	.	.	16b\JJ	16dd\JJ	.	.	.	.	.	.	.	.	.	.	.	.
=34	=34	=34	=34	=34	=34	=34	=34	=34	=34	=34	=34	=34	=34	=34	=34	=34
8c\L	.	.	8gg\L	8ee\L	1ryy	.	.	.	.	.	.	.	.	.	.	.
8c\	.	.	8gg\J	8ee\	.	.	.	.	.	.	.	.	.	.	.	.
8c\	.	.	16gg\LL	16ee\L	.	.	.	.	.	.	.	.	.	.	.	.
.	.	.	16ff\	16dd\	.	.	.	.	.	.	.	.	.	.	.	.
8G\J	.	.	16gg\	16ee\	.	.	.	.	.	.	.	.	.	.	.	.
.	.	.	16dd\JJ	16b\JJ	.	.	.	.	.	.	.	.	.	.	.	.
8C/L	.	.	16cc\LL	16ee\LL	.	.	.	.	.	.	.	.	.	.	.	.
.	.	.	16dd\	16ff\	.	.	.	.	.	.	.	.	.	.	.	.
8BB/J	X 6	.	16cc\	16ee\	.	.	.	.	.	.	.	.	.	.	.	.
.	.	.	16b\JJ	16dd\JJ	.	.	.	.	.	.	.	.	.	.	.	.
4C/	.	.	8a\L	8cc\L	.	.	.	.	.	.	.	.	.	.	.	.
.	.	.	8cc\J	8ee\J	.	.	.	.	.	.	.	.	.	.	.	.
=35	=35	=35	=35	=35	=35	=35	=35	=35	=35	=35	=35	=35	=35	=35	=35	=35
4GG/	.	1r	8b\L	8dd\L	1ryy	.	1r	.	1r	.	1r	.	1r	.	1r	1r
.	.	.	8b\	8dd\	.	.	.	.	.	.	.	.	.	.	.	.
4C/	.	.	16cc\L	16ee\L	.	.	.	.	.	.	.	.	.	.	.	.
.	.	.	16ee\	16gg\	.	.	.	.	.	.	.	.	.	.	.	.
.	.	.	16dd\	16ff\	.	.	.	.	.	.	.	.	.	.	.	.
.	.	.	16cc\JJ	16ee\JJ	.	.	.	.	.	.	.	.	.	.	.	.
!LO:TX:a:t=P:problem:mixed beam	!	!	!	!	!	!	!	!	!	!	!	!	!	!	!	!
8G\L	.	.	8.b\L	8.dd\L	.	.	.	.	.	.	.	.	.	.	.	.
8GG/J	.	.	.	.	.	.	.	.	.	.	.	.	.	.	.	.
.	.	.	16b\Jk	16dd\Jk	.	.	.	.	.	.	.	.	.	.	.	.
4C/	.	.	4cc\	4cc\	.	.	.	.	.	.	.	.	.	.	.	.
!	!	!	!LO:LB:g=original	!LO:LB:g=original	!	!	!	!	!	!	!	!	!	!	!	!
!	!	!	!	!	!	!	!LO:LB:g=original	!	!	!	!	!	!	!	!	!
!	!	!LO:PB:g=original	!	!	!	!	!	!	!LO:LB:g=original	!	!	!	!	!	!	!
=36	=36	=36-	=36	=36	=36	=36	=36-	=36	=36-	=36	=36-	=36	=36	=36	=36	=36
*M3/4	*	*M3/4	*M3/4	*M3/4	*M3/4	*	*M3/4	*	*M3/4	*	*M3/4	*	*M3/4	*	*M3/4	*M3/4
!	!	!LO:TX:b:t=Tu Septiformis	!	!LO:TX:b:t=Tu Septiformis	!	!	!	!	!	!	!	!	!	!	!	!
!	!	!	!LO:N:vis=00	!LO:N:vis=00	!	!	!	!	!	!	!	!	!	!	!LO:N:vis=00	!LO:N:vis=00
!LO:TX:b:t=A. T. B	!	!	!	!	!	!	!	!	!LO:TX:b:t= a 2	!	!LO:N:vis=00	!	!LO:N:vis=00	!	!	!
!	!	!	!	!	!	!	!	!	!	!	!	!	!	!	!LO:TX:b:t=Tu Septiformis.	!LO:TX:b:t=Tu Septiformis.
4C/	.	4C/	0.r	0.r	4C/	Tu	4e\	Tu	4g\	Tu	0.r	.	0.r	.	0.r	0.r
4C/	5 3	8C/L	.	.	(8C/L	Se-	4e\	ſe-	4g\	ſe-	.	.	.	.	.	.
.	.	8D/	.	.	8D/)	.	.	.	.	.	.	.	.	.	.	.
4C/	.	8E/	.	.	(8E/	-pti	4e\	-pti	4g\	-pti	.	.	.	.	.	.
.	.	8C/J	.	.	8C/J)	.	.	.	.	.	.	.	.	.	.	.
=37	=37	=37	=37	=37	=37	=37	=37	=37	=37	=37	=37	=37	=37	=37	=37	=37
!	!	!	!	!	!LO:TX:a:t=+	!	!	!	!	!	!	!	!	!	!	!
!	!	!	!	!	!LO:TX:a:t=P:problem:w źródle łuczek nad "+"	!	!	!	!	!	!	!	!	!	!	!
4F\	.	4c 4A 4F 4C 4AA 4FF/	.	.	2F\	-for-	8f\L	for-	8a\L	for-	.	.	.	.	.	.
.	.	.	.	.	.	.	8e\	.	(>8g\	.	.	.	.	.	.	.
!LO:TX:b:t=Tu Septiformis	!	!	!	!	!	!	!	!	!	!	!	!	!	!	!	!
4F\	5 3	16F\LL	.	.	.	.	8d\	.	8f\)	.	.	.	.	.	.	.
.	.	16E\	.	.	.	.	.	.	.	.	.	.	.	.	.	.
.	.	16F\	.	.	.	.	8e\J	.	8g\J	.	.	.	.	.	.	.
.	.	16G\JJ	.	.	.	.	.	.	.	.	.	.	.	.	.	.
4F\	.	16A\LL	.	.	4F\	-mis	4f\	-mis	16a\LL	-mis	.	.	.	.	.	.
.	.	16G\	.	.	.	.	.	.	(16g\	.	.	.	.	.	.	.
.	.	16A\	.	.	.	.	.	.	16a\)	.	.	.	.	.	.	.
.	.	16B\JJ	.	.	.	.	.	.	16b-\JJ	.	.	.	.	.	.	.
=38	=38	=38	=38	=38	=38-	=38	=38	=38	=38	=38	=38	=38	=38	=38	=38	=38
!	!	!LO:TX:a:t=P:problem:mixed beam	!	!	!	!	!	!	!	!	!	!	!	!	!	!
4.C/	.	8c\L	.	.	4.C/	mu-	4.e\	mu-	4.g\	mu-	.	.	.	.	.	.
.	.	16C/L	.	.	.	.	.	.	.	.	.	.	.	.	.	.
.	.	16D/J	.	.	.	.	.	.	.	.	.	.	.	.	.	.
.	.	8E/	.	.	.	.	.	.	.	.	.	.	.	.	.	.
8C/	.	8D/	.	.	8C/	-ne-	8e\	-ne-	8g\	-ne-	.	.	.	.	.	.
4C/	.	8C/	.	.	4C/	-re	4e\	-re	4g\	-re	.	.	.	.	.	.
.	.	8c\J	.	.	.	.	.	.	.	.	.	.	.	.	.	.
=39	=39	=39	=39	=39	=39	=39	=39	=39	=39	=39	=39	=39	=39	=39	=39	=39
*	*	*^	*	*	*	*	*	*	*	*	*	*	*	*	*	*
*	*	*clefC4	*	*	*	*	*	*	*	*	*	*	*	*	*	*	*
4C/	.	8e/L	8c\L	.	.	4C/	di-	4g\	di-	4g\	di-	.	.	.	.	.	.
.	.	8d/J	8BJ 8G\	.	.	.	.	.	.	.	.	.	.	.	.	.	.
4AA/	X 6#	8c/L	8A\L	.	.	4AA/	-gi-	4f#X\	-gi-	4a\	-gi-	.	.	.	.	.	.
.	.	8c/J	8A\J	.	.	.	.	.	.	.	.	.	.	.	.	.	.
4GG/	.	4d 4B/	4G\	.	.	8GG/	-tus	8g\	-tus	8bn\	-tus	.	.	.	.	.	.
.	.	.	.	.	.	8GG/	Pa-	8g\	Pa-	8b\	Pa-	.	.	.	.	.	.
!LO:PB:g=original	!	!	!	!	!	!	!	!	!	!	!	!	!	!	!	!	!
=40	=40	=40	=40	=40	=40	=40	=40	=40	=40	=40	=40	=40	=40	=40	=40	=40	=40
*	*	*	*	*	*	*	*	*2\right	*	*2\right	*	*	*	*	*	*	*
!	!	!	!	!LO:N:vis=00	!LO:N:vis=00	!	!	!	!	!	!	!	!	!	!	!LO:N:vis=00	!LO:N:vis=00
!	!	!	!	!	!	!	!	!	!	!	!	!LO:N:vis=00	!	!LO:N:vis=00	!	!	!
2AA/	.	8c/L	8A\L	0.r	0.r	2AA/	-ter-	2a\	-ter-	2cc\	-ter-	0.r	.	0.r	.	0.r	0.r
.	.	8B/J	8G\J	.	.	.	.	.	.	.	.	.	.	.	.	.	.
.	.	4A/	4F#X\	.	.	.	.	.	.	.	.	.	.	.	.	.	.
8BB/L	X 6	8B/	8G\L	.	.	(8BB/L	-nae	4g\	-nae	4b\	-nae	.	.	.	.	.	.
*	*	*clefF4	*	*	*	*	*	*	*	*	*	*	*	*	*	*	*
8C/J	X 5	8ryy	8GG\J	.	.	8C/J)	.	.	.	.	.	.	.	.	.	.	.
*	*	*v	*v	*	*	*	*	*	*	*	*	*	*	*	*	*	*
!	!	!	!	!	!LO:LB:g=original	!	!	!	!	!	!	!	!	!	!	!
=41	=41	=41	=41	=41	=41	=41	=41	=41	=41-	=41	=41	=41	=41	=41	=41	=41
!	!	!	!	!	!	!	!	!	!LO:TX:a:t=+	!	!	!	!	!	!	!
!	!	!	!	!	!	!	!	!	!LO:TX:a:t=P:problem:w źródle łuczek nad "+"	!	!	!	!	!	!	!
4.D/	X #	8D\L	.	.	4.D/	dex-	4.f#X\	dex-	4.a\	dex-	.	.	.	.	.	.
.	.	8E\	.	.	.	.	.	.	.	.	.	.	.	.	.	.
.	.	8F#\	.	.	.	.	.	.	.	.	.	.	.	.	.	.
8D/	.	8D\J	.	.	8D/	-te-	8f#\	-te-	8a\	-te-	.	.	.	.	.	.
4GG/	.	4G\	.	.	4GG/	-rae	4g\	-rae	4g\	-rae	.	.	.	.	.	.
!	!	!LO:LB:g=original	!	!	!	!	!	!	!	!	!	!	!	!	!	!
=42	=42	=42	=42	=42	=42	=42	=42	=42	=42	=42	=42	=42	=42	=42	=42	=42
4C/	.	16C/LL	.	.	4C/	tu	4e\	tu	4g\	tu	.	.	.	.	.	.
.	.	16D/	.	.	.	.	.	.	.	.	.	.	.	.	.	.
.	.	16E/	.	.	.	.	.	.	.	.	.	.	.	.	.	.
.	.	16C/JJ	.	.	.	.	.	.	.	.	.	.	.	.	.	.
4F\	.	16F\LL	.	.	16F\LL	ri-	4f\	ri-	4a\	-vi-	.	.	.	.	.	.
.	.	16G\	.	.	(16G\	.	.	.	.	.	.	.	.	.	.	.
.	.	16F\	.	.	16F\)	.	.	.	.	.	.	.	.	.	.	.
.	.	16E\JJ	.	.	16E\JJ	.	.	.	.	.	.	.	.	.	.	.
!	!	!LO:TX:a:t=P:problem:mixed beam	!	!	!	!	!	!	!	!	!	!	!	!	!	!
4D\	.	8D/L	.	.	8D/	-te	8d\	-te	8f\	-te	.	.	.	.	.	.
.	.	8DD\J	.	.	8D/	pro-	8d\	pro-	8f\	pro-	.	.	.	.	.	.
!	!	!	!	!	!	!	!	!	!LO:LB:g=original	!	!	!	!	!	!	!
=43	=43	=43	=43	=43	=43	=43	=43	=43	=43	=43	=43	=43	=43	=43	=43	=43
2C/	.	8C/L	.	.	(8C/L	-miſ-	8e\L	-miſ-	(>8g\L	-miſ-	.	.	.	.	.	.
.	.	8BB/	.	.	8D/)	.	8f\	.	8a\	.	.	.	.	.	.	.
.	.	8C/	.	.	(8E/	-Sum	8e\	.	8g\)	.	.	.	.	.	.	.
.	.	8D/J	.	.	8C/J)	.	8d\J	.	8f\J	.	.	.	.	.	.	.
4C/	.	16E\LL	.	.	8E\L	.	4c\	-sum	(>16e\LL	-sum	.	.	.	.	.	.
.	.	16C\	.	.	.	.	.	.	16g\	.	.	.	.	.	.	.
.	.	16E\	.	.	8F\J	.	.	.	16f\)	.	.	.	.	.	.	.
.	.	16F\JJ	.	.	.	.	.	.	16e\JJ	.	.	.	.	.	.	.
!	!	!	!	!	!	!	!LO:LB:g=original	!	!	!	!	!	!	!	!	!
=44	=44	=44	=44	=44	=44	=44	=44	=44	=44	=44	=44	=44	=44	=44	=44	=44
!	!	!	!LO:N:vis=00	!LO:N:vis=00	!	!	!	!	!	!	!	!	!	!	!LO:N:vis=00	!LO:N:vis=00
!	!	!	!	!	!	!	!	!	!	!	!LO:N:vis=00	!	!LO:N:vis=00	!	!	!
2GG/	.	4G\	0.r	0.r	8G\L	Pa-	2B\	Pa-	2d\	Pa-	0.r	.	0.r	.	0.r	0.r
.	.	.	.	.	16F\L	.	.	.	.	.	.	.	.	.	.	.
.	.	.	.	.	16E\JJ	.	.	.	.	.	.	.	.	.	.	.
.	.	8GG/L	.	.	16D/LL	.	.	.	.	.	.	.	.	.	.	.
.	.	.	.	.	16C/	.	.	.	.	.	.	.	.	.	.	.
.	.	8AA/	.	.	16BB/	.	.	.	.	.	.	.	.	.	.	.
.	.	.	.	.	16AA/JJ	.	.	.	.	.	.	.	.	.	.	.
4GG/	.	8BB/	.	.	4GG/	-tris	4B\	-tris	4d\	-tris	.	.	.	.	.	.
.	.	8GG/J	.	.	.	.	.	.	.	.	.	.	.	.	.	.
=45	=45	=45	=45	=45	=45	=45	=45	=45	=45	=45	=45	=45	=45	=45	=45	=45
!	!	!LO:TX:a:t=P:problem:mixed beam	!	!	!	!	!	!	!	!	!	!	!	!	!	!
4C/	.	8C/L	.	.	4C/	Ser-	(>8e\L	ſer-	(>8g\L	ſer-	.	.	.	.	.	.
.	.	8c\	.	.	.	.	8d\)	.	8f\)	.	.	.	.	.	.	.
4r	.	8B\	.	.	4BB/	-mo-	(>8c\	-mo-	(>8e\	-mo-	.	.	.	.	.	.
.	.	8c\J	.	.	.	.	8e\)	.	8g\)	.	.	.	.	.	.	.
!	!	!LO:TX:a:t=P:problem:mixed beam	!	!	!	!	!	!	!	!	!	!	!	!	!	!
4r	.	8C/L	.	.	4C/	-ne	(>8d\	-ne	(>8f\	-ne	.	.	.	.	.	.
.	.	8c\J	.	.	.	.	8c\J)	.	8e\J)	.	.	.	.	.	.	.
=46	=46	=46	=46	=46	=46	=46	=46	=46	=46	=46	=46	=46	=46	=46	=46	=46
4GG/	.	16G\LL	.	.	8G\L	di-	4B\	di-	4d\	di-	.	.	.	.	.	.
.	.	16A\	.	.	.	.	.	.	.	.	.	.	.	.	.	.
.	.	16G\	.	.	8F\	.	.	.	.	.	.	.	.	.	.	.
.	.	16F\JJ	.	.	.	.	.	.	.	.	.	.	.	.	.	.
4C/	.	16E\LL	.	.	8E\	.	8c\L	-tans	(>8e\L	-tans	.	.	.	.	.	.
.	.	16F\	.	.	.	.	.	.	.	.	.	.	.	.	.	.
.	.	16E\	.	.	8D\J	.	8e\	.	8g\	.	.	.	.	.	.	.
.	.	16D\JJ	.	.	.	.	.	.	.	.	.	.	.	.	.	.
4C/	.	16C\LL	.	.	16C\LL	-tans	8d\	.	8f\)	.	.	.	.	.	.	.
.	.	16D\	.	.	16D\	.	.	.	.	.	.	.	.	.	.	.
.	.	16E\	.	.	16E\	.	8c\J	.	8e\J	.	.	.	.	.	.	.
.	.	16F\JJ	.	.	16F\JJ	.	.	.	.	.	.	.	.	.	.	.
!	!	!	!	!	!LO:LB:g=original	!	!	!	!	!	!	!	!	!	!	!
=47	=47	=47	=47	=47	=47	=47	=47	=47	=47	=47	=47	=47	=47	=47	=47	=47
!	!	!LO:TX:a:t=P:problem:mixed beam	!	!	!	!	!	!	!	!	!	!	!	!	!	!
2GG/	.	8G\L	.	.	4.G\	gut-	4.B\	gut-	4.d\	gut-	.	.	.	.	.	.
.	.	8F-\	.	.	.	.	.	.	.	.	.	.	.	.	.	.
.	.	8G\	.	.	.	.	.	.	.	.	.	.	.	.	.	.
.	.	8GG/J	.	.	8G\	-tu-	8B\	-tu-	8d\	-tu-	.	.	.	.	.	.
4C/	.	4C/	.	.	4C/	-ra	4c\	-ra	4c/	-ra	.	.	.	.	.	.
!	!	!LO:LB:g=original	!	!	!	!	!	!	!	!	!	!	!	!	!	!
=48	=48	=48	=48-	=48-	=48-	=48	=48	=48	=48	=48	=48	=48	=48	=48	=48	=48
!LO:TX:b:t=Violini	!	!LO:TX:b:t=Violini	!	!	!	!	!	!	!	!	!	!	!	!	!LO:N:vis=00	!LO:N:vis=00
!	!	!	!	!	!LO:N:vis=00	!	!	!	!	!	!	!	!	!	!	!
!	!	!	!	!	!	!	!LO:N:vis=00	!	!LO:N:vis=00	!	!	!	!	!	!	!
!	!	!	!	!	!	!	!	!	!	!	!LO:N:vis=00	!	!LO:N:vis=00	!	!	!
4C/	.	8C/L	8ee\L	8gg\L	0.r	.	0.r	.	0.r	.	0.r	.	0.r	.	0.r	0.r
.	.	8BB/	8dd\	8ff\	.	.	.	.	.	.	.	.	.	.	.	.
8C/L	.	8C/	8cc\	8ee\	.	.	.	.	.	.	.	.	.	.	.	.
8D/	.	8D/	8dd\J	8ff\J	.	.	.	.	.	.	.	.	.	.	.	.
8E/	.	8E/	4ee\	4gg\	.	.	.	.	.	.	.	.	.	.	.	.
8C/J	.	8C/J	.	.	.	.	.	.	.	.	.	.	.	.	.	.
=49	=49	=49	=49	=49	=49	=49	=49	=49	=49	=49	=49	=49	=49	=49	=49	=49
4F\	.	8F\L	8ff\L	8aa\L	.	.	.	.	.	.	.	.	.	.	.	.
.	.	8E\	8ee\	8gg\	.	.	.	.	.	.	.	.	.	.	.	.
8FF/L	.	8F\	8dd\	8ff\	.	.	.	.	.	.	.	.	.	.	.	.
8GG/	.	8G\	8ee\J	8gg\J	.	.	.	.	.	.	.	.	.	.	.	.
8AA/	.	8A\	4ff\	4aa\	.	.	.	.	.	.	.	.	.	.	.	.
8BB/J	.	8B\J	.	.	.	.	.	.	.	.	.	.	.	.	.	.
=50	=50	=50	=50	=50	=50	=50	=50	=50	=50	=50	=50	=50	=50	=50	=50	=50
2.C/	.	8c\L	4.ee\	4.gg\	.	.	.	.	.	.	.	.	.	.	.	.
.	.	16B\L	.	.	.	.	.	.	.	.	.	.	.	.	.	.
.	.	16A\	.	.	.	.	.	.	.	.	.	.	.	.	.	.
.	.	16G\	.	.	.	.	.	.	.	.	.	.	.	.	.	.
.	.	16F\	.	.	.	.	.	.	.	.	.	.	.	.	.	.
.	.	16E\	8ee\	8gg\	.	.	.	.	.	.	.	.	.	.	.	.
.	.	16D\JJ	.	.	.	.	.	.	.	.	.	.	.	.	.	.
.	.	4C\	4ee\	4gg\	.	.	.	.	.	.	.	.	.	.	.	.
!LO:LB:g=original	!	!	!	!	!	!	!	!	!	!	!	!	!	!	!	!
=51	=51	=51	=51	=51	=51	=51	=51	=51	=51	=51	=51	=51	=51	=51	=51	=51
4c\	.	8c\L	4gg\	4gg\	.	.	.	.	.	.	.	.	.	.	.	.
.	.	8B\J	.	.	.	.	.	.	.	.	.	.	.	.	.	.
4A\	X 6#	4A\	4ff#\	4aa\	.	.	.	.	.	.	.	.	.	.	.	.
4G\	.	4G\	4gg\	4bb\	.	.	.	.	.	.	.	.	.	.	.	.
=52	=52	=52	=52	=52	=52	=52	=52	=52	=52	=52	=52	=52	=52	=52	=52	=52
!	!	!	!	!	!LO:N:vis=00	!	!	!	!	!	!	!	!	!	!LO:N:vis=0	!LO:N:vis=0
!	!	!	!	!	!	!	!LO:N:vis=00	!	!LO:N:vis=00	!	!	!	!	!	!	!
!	!	!	!	!	!	!	!	!	!	!	!LO:N:vis=00	!	!LO:N:vis=00	!	!	!
4A\	.	8A\L	4aa\	8ccc\L	0.r	.	0.r	.	0.r	.	0.r	.	0.r	.	1.r	1.r
.	.	8G\	.	8ddd\	.	.	.	.	.	.	.	.	.	.	.	.
4AA/	.	8F#\	4aa\	8eee\	.	.	.	.	.	.	.	.	.	.	.	.
.	.	8D\J	.	8ddd\J	.	.	.	.	.	.	.	.	.	.	.	.
!	!	!LO:TX:a:t=P:problem:mixed beam	!	!	!	!	!	!	!	!	!	!	!	!	!	!
8BB/L	X 6	16G\LL	4gg\	8ccc\L	.	.	.	.	.	.	.	.	.	.	.	.
.	.	16GG/	.	.	.	.	.	.	.	.	.	.	.	.	.	.
8C/J	X 5	16BB/	.	8bb\J	.	.	.	.	.	.	.	.	.	.	.	.
.	.	16C/JJ	.	.	.	.	.	.	.	.	.	.	.	.	.	.
=53	=53	=53	=53	=53	=53	=53	=53	=53	=53	=53	=53	=53	=53	=53	=53	=53
4.D/	.	8D/L	4.ff#\	4.aa\	.	.	.	.	.	.	.	.	.	.	.	.
.	X #	8C/	.	.	.	.	.	.	.	.	.	.	.	.	.	.
.	.	8BB/	.	.	.	.	.	.	.	.	.	.	.	.	.	.
8D/	.	8AA/J	8ff#\	8aa\	.	.	.	.	.	.	.	.	.	.	.	.
4GG/	.	4GG/	4gg\	4gg\	.	.	.	.	.	.	.	.	.	.	.	.
=54	=54	=54	=54-	=54	=54	=54	=54	=54	=54	=54	=54	=54	=54	=54	=54	=54-
!LO:TX:b:t=Clarini	!	!LO:N:vis=00	!LO:N:vis=00	!LO:N:vis=00	!	!	!	!	!	!	!	!	!	!	!	!
4C/	.	0.r	0.r	0.r	.	.	.	.	.	.	.	.	.	.	8ee\L	8gg\L
!	!	!	!	!	!	!	!	!	!	!	!	!	!	!	!	!LO:TX:b:t=a
.	.	.	.	.	.	.	.	.	.	.	.	.	.	.	8ee\	8gg\
!	!	!	!	!	!	!	!	!	!	!	!	!	!	!	!	!LO:TX:b:t=2.
4F\	.	.	.	.	.	.	.	.	.	.	.	.	.	.	8ff\	8aa\
.	.	.	.	.	.	.	.	.	.	.	.	.	.	.	8ff\	8aa\
4D\	.	.	.	.	.	.	.	.	.	.	.	.	.	.	8dd\	8ff\
.	.	.	.	.	.	.	.	.	.	.	.	.	.	.	8dd\J	8ff\J
=55	=55	=55	=55	=55	=55	=55	=55	=55	=55	=55	=55	=55	=55	=55	=55	=55
8C\L	.	.	.	.	.	.	.	.	.	.	.	.	.	.	8ee\L	8gg\L
8D\	.	.	.	.	.	.	.	.	.	.	.	.	.	.	8dd\	8ff\
8E\	.	.	.	.	.	.	.	.	.	.	.	.	.	.	8cc\	8ee\
8C\J	.	.	.	.	.	.	.	.	.	.	.	.	.	.	8ee\	8gg\
8E\L	.	.	.	.	.	.	.	.	.	.	.	.	.	.	8dd\	8ff\
8F\J	.	.	.	.	.	.	.	.	.	.	.	.	.	.	8cc\J	8ee\J
=56	=56	=56	=56	=56	=56	=56	=56	=56	=56	=56	=56	=56	=56	=56	=56	=56
*2\right	*	*	*	*	*	*	*	*	*	*	*	*	*	*	*	*
!	!	!	!	!	!LO:N:vis=00	!	!	!	!	!	!	!	!	!	!	!
!	!	!	!	!	!	!	!LO:N:vis=00	!	!LO:N:vis=00	!	!	!	!	!	!	!
!	!	!	!	!	!	!	!	!	!	!	!LO:N:vis=00	!	!LO:N:vis=00	!	!	!
2.G\	.	.	.	.	0.r	.	0.r	.	0.r	.	0.r	.	0.r	.	4g/	4dd\
.	.	.	.	.	.	.	.	.	.	.	.	.	.	.	8g/L	8dd\L
.	.	.	.	.	.	.	.	.	.	.	.	.	.	.	8g/J	8dd\J
.	.	.	.	.	.	.	.	.	.	.	.	.	.	.	4g/	4dd\
=57	=57	=57	=57	=57	=57	=57	=57	=57	=57	=57	=57	=57	=57	=57	=57	=57
4c\	.	.	.	.	.	.	.	.	.	.	.	.	.	.	8ee\L	8gg\L
.	.	.	.	.	.	.	.	.	.	.	.	.	.	.	8dd\	8ff\
4r	.	.	.	.	.	.	.	.	.	.	.	.	.	.	8cc\	8ee\
.	.	.	.	.	.	.	.	.	.	.	.	.	.	.	8ee\	8gg\
4r	.	.	.	.	.	.	.	.	.	.	.	.	.	.	8dd\	8ff\
.	.	.	.	.	.	.	.	.	.	.	.	.	.	.	8cc\J	8ee\J
=58	=58	=58	=58	=58	=58	=58	=58	=58	=58	=58	=58	=58	=58	=58	=58	=58
!	!	!LO:N:vis=0	!LO:N:vis=0	!LO:N:vis=0	!	!	!	!	!	!	!	!	!	!	!	!
4G\	.	1.r	1.r	1.r	.	.	.	.	.	.	.	.	.	.	4g/	4dd\
4c\	.	.	.	.	.	.	.	.	.	.	.	.	.	.	8cc\L	8ee\L
.	.	.	.	.	.	.	.	.	.	.	.	.	.	.	8ee\	8gg\
4c\	.	.	.	.	.	.	.	.	.	.	.	.	.	.	8dd\	8ff\
.	.	.	.	.	.	.	.	.	.	.	.	.	.	.	8cc\J	8ee\J
!	!	!	!	!	!	!	!	!	!	!	!	!	!	!	!	!LO:LB:g=original
=59	=59	=59	=59	=59	=59	=59	=59	=59	=59	=59	=59	=59	=59	=59	=59	=59
4G\	.	.	.	.	.	.	.	.	.	.	.	.	.	.	4.g/	4.dd\
4GG/	.	.	.	.	.	.	.	.	.	.	.	.	.	.	.	.
.	.	.	.	.	.	.	.	.	.	.	.	.	.	.	8g/	8dd\
4C/	.	.	.	.	.	.	.	.	.	.	.	.	.	.	4e/	4cc\
!	!	!LO:LB:g=original	!	!	!	!	!	!	!	!	!	!	!	!	!	!
=60	=60	=60	=60-	=60-	=60-	=60	=60	=60	=60	=60	=60-	=60	=60-	=60	=60-	=60
!LO:TX:b:t=Hoſtem	!	!	!LO:TX:b:t=Hoſtem repellas	!LO:TX:b:t=tutti	!	!	!	!	!	!	!	!	!	!	!	!
!LO:TX:a:t=Tutti	!	!	!LO:TX:a:t=tutti	!LO:TX:b:t=Hoſtem repellas	!LO:TX:b:t=Tutti	!	!LO:TX:a:t=tutti	!	!LO:TX:a:t=tutti	!	!LO:TX:b:t=Tutti	!	!	!	!	!
!	!	!	!	!	!	!	!	!	!	!	!	!	!	!	!LO:N:vis=0	!LO:N:vis=0
!	!	!	!	!	!	!	!	!	!	!	!	!	!	!	!	!LO:TX:b:t=Hoſtem repellas.
4C/	.	4e 4c 4G 4E 4C 4GG 4EE\	8ee\L	8gg\L	4c\	Hoſ-	4c\	-Hoſ-	4e\	Hoſ-	4cc\	Hoſ-	4ee\	Hoſ-	1.r	1.r
!	!	!	!	!	!	!	!	!	!	!	!	!	!LO:TX:b:t=tutti	!	!	!
.	.	.	8dd\	8ff\	.	.	.	.	.	.	.	.	.	.	.	.
4C/	.	4C/	8cc\	8ee\	4c\	-tem	4c\	-tem	4c\	-tem	(>8ee\L	-tem	(>8gg\L	-tem	.	.
.	.	.	8dd\	8ff\	.	.	.	.	.	.	8dd\)	.	8ff\)	.	.	.
8BB/L	X 6	4GG/	8ee\	8gg\	(8B\L	re-	(>8e\L	re-	4g\	re-	(>8ee\	.	(>8gg\	re-	.	.
8GG/J	.	.	8b\J	8dd\J	8G\J)	.	8d\J)	.	.	.	8b\J)	re-	8dd\J)	.	.	.
!LO:LB:g=original	!	!	!	!	!	!	!	!	!	!	!	!	!	!	!	!
=61	=61	=61	=61	=61	=61	=61	=61	=61	=61	=61	=61	=61	=61	=61	=61	=61
2C/	.	4C/	8cc\L	8ee\L	4c\	-pel-	4c\	-pel-	(>4e\	-pel-	8cc\L	-pel-	(>8ee\L	-pel-	.	.
.	.	.	8b\	8dd\	.	.	.	.	.	.	8b\	.	8dd\)	.	.	.
.	.	8C/L	8a\	8cc\	8C/L	-las	8c\L	-la	4c\)	.	8a\	.	8cc\	-las	.	.
.	.	8D/	8b\J	8dd\J	8D/	.	8B\	.	.	.	8b\J	.	(>8dd\	.	.	.
4C/	.	8E/	4cc\	4ee\	8E/	.	8c\	.	(>8e\L	-las	4cc\	-las	8ee\)	.	.	.
.	.	8F/J	.	.	8F/J	.	8d\J	.	8f\J)	.	.	.	8ff\J	.	.	.
!	!	!	!LO:LB:g=original	!LO:LB:g=original	!	!	!	!	!	!	!	!	!	!	!	!
!	!	!	!	!	!	!	!	!	!LO:LB:g=original	!	!	!	!	!	!	!
=62	=62	=62	=62	=62	=62	=62	=62	=62	=62	=62	=62	=62	=62	=62	=62	=62
4.GG/	.	4.d 4.B 4.G 4.D 4.GG 4.DD/	4.b/	4.dd\	4.G\	lon-	4.d\	-lon-	4.g\	-lon-	4.b\	-lon-	4.dd\	lon-	2.r	2.r
8GG/	.	8G\	8b/	8dd\	8G\	-gi-	8d\	-gi-	8g\	-gi-	8b\	-gi-	8dd\	-gi-	.	.
4GG/	.	4G\	4b/	4dd\	4G\	-us	4d\	-us	4g\	-us	4b\	-us,	4dd\	-us	.	.
!	!	!	!	!	!	!	!	!	!	!	!	!	!	!	!LO:LB:g=original	!
=63	=63	=63-	=63	=63	=63-	=63	=63	=63	=63	=63	=63	=63	=63-	=63	=63-	=63
!LO:TX:b:t=Clarini	!	!	!LO:N:vis=0	!LO:N:vis=0	!	!	!	!	!	!	!	!	!	!	!LO:TX:a:t=P:problem:mixed beam	!
!	!	!	!	!	!LO:N:vis=0	!	!	!	!	!	!	!	!	!	!	!
!	!	!	!	!	!	!	!LO:N:vis=0	!	!LO:N:vis=0	!	!	!	!	!	!	!
!	!	!LO:N:vis=0	!	!	!	!	!	!	!	!	!LO:N:vis=0	!	!LO:N:vis=0	!	!	!
4c\	.	1.r	1.r	1.r	1.r	.	1.r	.	1.r	.	1.r	.	1.r	.	8cc\L	8ee\L
.	.	.	.	.	.	.	.	.	.	.	.	.	.	.	8dd\	8ff\
4c\	.	.	.	.	.	.	.	.	.	.	.	.	.	.	8ee\	8gg\
.	.	.	.	.	.	.	.	.	.	.	.	.	.	.	8dd\	8ff\
8B\L	X 6	.	.	.	.	.	.	.	.	.	.	.	.	.	8ee\	8gg\
8G\J	.	.	.	.	.	.	.	.	.	.	.	.	.	.	8g/J	8dd\J
=64	=64	=64	=64	=64	=64	=64	=64	=64	=64	=64	=64	=64	=64	=64	=64	=64
!	!	!	!	!	!	!	!	!	!	!	!	!	!	!	!LO:TX:a:t=P:problem:mixed beam	!
4c\	.	.	.	.	.	.	.	.	.	.	.	.	.	.	8cc\L	8ee\L
.	.	.	.	.	.	.	.	.	.	.	.	.	.	.	8g/	8dd\
4C/	.	.	.	.	.	.	.	.	.	.	.	.	.	.	8e/	8cc\
.	.	.	.	.	.	.	.	.	.	.	.	.	.	.	8ee\	8gg\
8E\L	.	.	.	.	.	.	.	.	.	.	.	.	.	.	8dd\	8ff\
8F\J	.	.	.	.	.	.	.	.	.	.	.	.	.	.	8cc\J	8ee\J
=65	=65	=65	=65	=65	=65	=65	=65	=65	=65	=65	=65	=65	=65	=65	=65	=65
4.G\	.	2.r	2.r	2.r	2.r	.	2.r	.	2.r	.	2.r	.	2.r	.	4.g/	4.dd\
8G\	.	.	.	.	.	.	.	.	.	.	.	.	.	.	8g/	8dd\
4G\	.	.	.	.	.	.	.	.	.	.	.	.	.	.	4g/	4dd\
!	!	!	!	!	!	!	!LO:LB:g=original	!	!	!	!	!	!	!	!	!
=66	=66	=66-	=66-	=66-	=66-	=66	=66-	=66	=66-	=66	=66-	=66	=66-	=66	=66	=66-
!LO:TX:b:t=Tutti	!	!	!	!	!	!	!	!	!	!	!	!	!	!	!LO:N:vis=0	!LO:N:vis=0
4C/	.	4C/	8ee\L	8gg\L	4C/	Pa-	4c\	Pa-	4e\	pa-	(>8cc\L	-pa-	(>8ee\L	pa-	1.r	1.r
.	.	.	8dd\	8ff\	.	.	.	.	.	.	8dd\)	.	8ff\)	.	.	.
4C/	.	4C/	8cc\	8ee\	4C/	-cem-	4c\	-cem-	4c\	-cem-	(>8ee\	-cem-	(>8gg\	-cem-	.	.
.	.	.	8dd\	8ff\	.	.	.	.	.	.	8dd\)	.	8ff\)	.	.	.
4BB/	X 6	8BB/L	8ee\	8gg\	4BB/	-que	4d\	-que	4g\	-que	(>8ee\	-que	(>8gg\	-que	.	.
.	.	8GG/J	8b\J	8dd\J	.	.	.	.	.	.	8b\J)	.	8dd\J)	.	.	.
!	!	!	!	!	!	!	!	!	!	!	!LO:LB:g=original	!	!	!	!	!
=67	=67	=67	=67	=67	=67	=67	=67	=67	=67	=67	=67	=67	=67	=67	=67	=67
4C\	.	8C/L	8cc\L	8ee\L	4C/	do-	4c\	do-	(>4e\	-do-	8cc\L	do-	(>8ee\L	do-	.	.
.	.	8BB/	8b\	8dd\	.	.	.	.	.	.	8b\	.	8dd\)	.	.	.
4E\	X 6	8C/	8a\	8cc\	8C/L	-nes	8c\L	-nes	4c\)	.	8a\	-nes	8cc\	-nes	.	.
.	.	8D/J	8b\J	8dd\	8D/	.	8B\	.	.	.	8b\J	.	(>8dd\	.	.	.
4C\	.	8E\L	4cc\	8ee\	8E/	.	8c\	.	(>8e\L	-nes	4cc\	.	8ee\)	.	.	.
.	.	8F\J	.	8ff\J	8F/J	.	8d\J	.	8f\J)	.	.	.	8ff\J	.	.	.
!	!	!	!	!	!	!	!	!	!	!	!	!	!LO:LB:g=original	!	!	!
=68	=68	=68	=68	=68	=68	=68	=68	=68	=68-	=68	=68	=68	=68	=68	=68	=68
4G\	.	4.G\	4.b/	4.dd\	4.G\	pro-	4.d\	pro-	4.g\	pro-	4.b\	pro-	4.dd\	pro-	2.r	2.r
8GG/L	.	.	.	.	.	.	.	.	.	.	.	.	.	.	.	.
8AA/	.	8GG/	8b/	8dd\	8G\	-ti-	8d\	-ti-	8g\	-ti-	8b\	-ti-	8dd\	-ti-	.	.
8BB/	.	4GG/	4b/	4dd\	4G\	-nus	4d\	-nus	4g\	-nus	4b\	-nus	4dd\	-nus	.	.
8GG/J	.	.	.	.	.	.	.	.	.	.	.	.	.	.	.	.
=69	=69	=69-	=69	=69-	=69	=69	=69	=69	=69	=69	=69	=69	=69-	=69	=69-	=69-
!LO:TX:b:t=Clarini	!	!	!LO:N:vis=0	!LO:N:vis=0	!LO:N:vis=0	!	!	!	!	!	!	!	!	!	!LO:TX:a:t=P:problem:mixed beam	!
!	!	!	!	!	!	!	!LO:N:vis=00	!	!LO:N:vis=00	!	!	!	!	!	!	!
!	!	!LO:N:vis=0	!	!	!	!	!	!	!	!	!LO:N:vis=0	!	!LO:N:vis=0	!	!	!
4c\	.	1.r	1.r	1.r	1.r	.	0.r	.	0.r	.	1.r	.	1.r	.	8cc\L	8ee\L
.	.	.	.	.	.	.	.	.	.	.	.	.	.	.	8dd\	8ff\
4c\	.	.	.	.	.	.	.	.	.	.	.	.	.	.	8ee\	8gg\
.	.	.	.	.	.	.	.	.	.	.	.	.	.	.	8dd\	8ff\
8B\L	X 6	.	.	.	.	.	.	.	.	.	.	.	.	.	8ee\	8gg\
8G\J	.	.	.	.	.	.	.	.	.	.	.	.	.	.	8e/J	8dd\J
=70	=70	=70	=70	=70	=70	=70	=70	=70	=70	=70	=70	=70	=70	=70	=70	=70
!	!	!	!	!	!	!	!	!	!	!	!	!	!	!	!LO:TX:a:t=P:problem:mixed beam	!
4c\	.	.	.	.	.	.	.	.	.	.	.	.	.	.	8cc\L	8ee\L
.	.	.	.	.	.	.	.	.	.	.	.	.	.	.	8g/	8dd\
4C/	.	.	.	.	.	.	.	.	.	.	.	.	.	.	8e/	8ee\
.	.	.	.	.	.	.	.	.	.	.	.	.	.	.	8ee\	8gg\
8E\L	.	.	.	.	.	.	.	.	.	.	.	.	.	.	8dd\	8ff\
8F\J	.	.	.	.	.	.	.	.	.	.	.	.	.	.	8cc\J	8ee\J
=71	=71	=71	=71	=71	=71	=71	=71	=71	=71	=71	=71	=71	=71	=71	=71	=71
2G\	.	2.r	2.r	2.r	2.r	.	.	.	.	.	2.r	.	2.r	.	4.g/	4.dd\
.	.	.	.	.	.	.	.	.	.	.	.	.	.	.	8g/	8dd\
4G\	.	.	.	.	.	.	.	.	.	.	.	.	.	.	4g/	4dd\
!LO:LB:g=original	!	!	!	!	!LO:LB:g=original	!	!	!	!	!	!	!	!	!	!	!
=72	=72	=72-	=72-	=72-	=72-	=72	=72	=72	=72	=72	=72-	=72	=72-	=72	=72	=72-
!LO:TX:b:t=Tutti	!	!	!	!	!	!	!	!	!	!	!	!	!	!	!LO:N:vis=00	!LO:N:vis=00
4GG/	.	4d 4B 4G\	4b/	4dd\	4G\	Duc-	.	.	.	.	4b\	duc-	4dd\	duc-	0.r	0.r
4GG/	.	4d 4B 4G\	4b/	4dd\	4G\	-to-	.	.	.	.	4b\	-to-	4dd\	-to-	.	.
4GG/	.	4d 4B 4G\	4b/	4dd\	4G\	-re	.	.	.	.	4b\	-re	4dd\	-re	.	.
=73-	=73	=73	=73	=73	=73	=73	=73	=73	=73	=73	=73	=73	=73	=73	=73	=73
*	*	*^	*	*	*	*	*	*	*	*	*	*	*	*	*	*
*	*	*clefC4	*clefC4	*	*	*	*	*	*	*	*	*	*	*	*	*	*
!	!	!	!	!	!	!	!	!LO:N:vis=0	!	!LO:N:vis=0	!	!	!	!	!	!	!
8C/L	.	8e/L	8c\L	8cc\L	8ee\L	(8c\L	Sic	1.r	.	1.r	.	(>8cc\L	ſic	8ee\L	Sic	.	.
8BB/J	.	8d/J	8B\J	8b\	8ff#\	8B\J)	.	.	.	.	.	8b\	.	(>8dd\	.	.	.
4AA/	.	4c/	4A\	8cc\	8gg\	4A\	.	.	.	.	.	8cc\)	.	8ee\)	.	.	.
.	.	.	.	8dd\J	8aa\	.	.	.	.	.	.	8dd\J	te	8ff#\J	te	.	.
4GG/	X 6	8B/	8G\L	4ee\	16bb\L	(8G\L	te	.	.	.	.	4ee\	.	4gg\	.	.	.
.	.	.	.	.	16ccc\J	.	.	.	.	.	.	.	.	.	.	.	.
.	.	8ryy	8A\J	.	8ddd\J	8A\J)	.	.	.	.	.	.	.	.	.	.	.
*	*	*v	*v	*	*	*	*	*	*	*	*	*	*	*	*	*	*
!	!	!LO:LB:g=original	!	!	!	!	!	!	!	!	!	!	!	!	!	!
=74	=74	=74	=74	=74	=74	=74	=74	=74	=74	=74	=74	=74	=74	=74	=74	=74
*	*	*clefF4	*	*	*	*	*	*	*	*	*	*	*	*	*	*
2BB/	X 5#	8B\L	4.dd\	4ff#X\	(8B\L	prae-	.	.	.	.	4.dd\	prae-	4.ff#X\	prae-	.	.
.	.	8A\	.	.	8A\J)	.	.	.	.	.	.	.	.	.	.	.
!	!	!	!	!	!LO:TX:a:t=+	!	!	!	!	!	!	!	!	!	!	!
!	!	!	!	!	!LO:TX:a:t=P:problem:w źródle łuczek nad "+"	!	!	!	!	!	!	!	!	!	!	!
.	.	8G\	.	8ee\L	8.G\	-vi-	.	.	.	.	.	.	.	.	.	.
.	.	8F#\J	8cc\	8ff#\J	.	.	.	.	.	.	8cc\	-vi-	8ff#\	-vi-	.	.
.	.	.	.	.	16F\	.	.	.	.	.	.	.	.	.	.	.
4E\	.	4E\	4b/	4gg\	4E\	-o	.	.	.	.	4b\	-o	4ee\	-o	.	.
!	!	!	!	!LO:LB:g=original	!	!	!	!	!	!	!	!	!	!	!	!
=75	=75	=75	=75	=75	=75	=75	=75-	=75	=75-	=75	=75	=75	=75	=75	=75	=75
4GG/	.	4G\	4b/	4dd\	4G\	Vi-	4G/	Vi-	4d\	Vi-	4b\	Vi-	4dd\	Vi-	.	.
!	!	!LO:TX:a:t=P:problem:mixed beam	!	!	!	!	!	!	!	!	!	!	!	!	!	!
4C/	.	8c\L	4cc\	4ee\	4c\	-te-	4c\	-te-	4g\	-te-	4cc\	-te-	4ee\	-te-	.	.
.	.	8C/	.	.	.	.	.	.	.	.	.	.	.	.	.	.
4C/	.	8E/	4cc\	4ee\	4c\	-mus	4c\	-mus	4g\	-mus	4cc\	-mus	4ee\	-mus	.	.
.	.	8C/J	.	.	.	.	.	.	.	.	.	.	.	.	.	.
!	!	!	!LO:LB:g=original	!	!	!	!	!	!	!	!	!	!	!	!	!
=76	=76	=76	=76	=76	=76	=76	=76	=76	=76	=76	=76-	=76	=76	=76	=76	=76
!	!	!	!	!	!	!	!	!	!	!	!	!	!	!	!LO:N:vis=0	!LO:N:vis=0
4AA/	.	4A\	8ee\L	8gg\L	8A\L	o-	(>4c\	o-	(>8e\L	o-	(>8cc\L	o-	(>8cc\L	o-	1.r	1.r
.	.	.	8dd\	8ff\	(>8E\	.	.	.	8d\)	.	8b\)	.	8dd\)	.	.	.
4GG/	.	8G\L	8cc\	8ee\	8F\)	.	4B\)	-mne	8c\	.	(>8cc\	-mne	(>8ee\	-mne	.	.
.	.	8F\	8ee\	8gg\	8E\J	.	.	.	8d\	.	8ee\)	.	8gg\	.	.	.
4C/	.	8E\	8dd\	8ff\	(<8D/L	mne	4c\	.	(>8e\	-mne	8dd\	.	8ff\)	.	.	.
.	.	8C\J	8cc\J	8ee\J	8C/J)	.	.	.	8f\J)	.	8cc\J	.	8ee\J	.	.	.
=77	=77	=77	=77	=77	=77	=77	=77	=77	=77	=77	=77	=77	=77	=77	=77	=77
4.GG/	.	4G\	4.b\	4.dd\	4.G\	no-	4.B\	no-	4.g\	no-	4.b\	no-	4.dd\	no-	.	.
.	.	4GG/	.	.	.	.	.	.	.	.	.	.	.	.	.	.
8GG/	.	.	8b\	8dd\	8G\	-xi-	8B\	-xi-	8f\	-xi-	8b\	-xi-	8dd\	-xi-	.	.
4C/	.	4C/	4cc\	4cc\	4C/	-um	4c\	-um	4e\	-um	4cc\	-um.	4cc\	-um.	.	.
!	!	!	!	!	!	!	!	!	!	!	!	!	!	!	!LO:PB:g=original	!LO:PB:g=original
=78	=78	=78	=78	=78-	=78-	=78	=78	=78	=78	=78	=78-	=78	=78-	=78	=78-	=78-
!LO:TX:b:t=Clarini	!	!	!LO:N:vis=0	!LO:N:vis=0	!LO:N:vis=0	!	!	!	!	!	!	!	!	!	!	!
!	!	!	!	!	!	!	!LO:N:vis=0	!	!LO:N:vis=0	!	!	!	!	!	!	!
!	!	!LO:N:vis=0	!	!	!	!	!	!	!	!	!LO:N:vis=0	!	!LO:N:vis=0	!	!	!
4G\	.	1.r	1.r	1.r	1.r	.	1.r	.	1.r	.	1.r	.	1.r	.	4g/	4dd\
4c\	.	.	.	.	.	.	.	.	.	.	.	.	.	.	4cc\	4ee\
4c\	.	.	.	.	.	.	.	.	.	.	.	.	.	.	4cc\	4ee\
=79	=79	=79	=79	=79	=79	=79	=79	=79	=79	=79	=79	=79	=79	=79	=79	=79
4A\	.	.	.	.	.	.	.	.	.	.	.	.	.	.	8f/L	8cc\L
.	.	.	.	.	.	.	.	.	.	.	.	.	.	.	8g/J	8dd\
4F\	.	.	.	.	.	.	.	.	.	.	.	.	.	.	8cc\L	8ee\
.	.	.	.	.	.	.	.	.	.	.	.	.	.	.	8ee\	8gg\
4c\	.	.	.	.	.	.	.	.	.	.	.	.	.	.	8dd\	8ff\
.	.	.	.	.	.	.	.	.	.	.	.	.	.	.	8cc\J	8ee\J
=80	=80	=80	=80	=80	=80	=80	=80	=80	=80	=80	=80	=80	=80	=80	=80	=80
4.G\	.	2.r	2.r	2.r	2.r	.	2.r	.	2.r	.	2.r	.	2.r	.	4g/	4dd\
.	.	.	.	.	.	.	.	.	.	.	.	.	.	.	8g/L	8dd\L
8G\	.	.	.	.	.	.	.	.	.	.	.	.	.	.	8g/J	8dd\J
4C/	.	.	.	.	.	.	.	.	.	.	.	.	.	.	4e/	4cc\
!	!	!	!	!	!	!	!	!	!	!	!LO:PB:g=original	!	!LO:PB:g=original	!	!	!
=81	=81	=81-	=81-	=81-	=81-	=81	=81-	=81	=81-	=81	=81-	=81	=81-	=81	=81	=81
*M2/2	*	*M2/2	*M2/2	*M2/2	*M2/2	*	*M2/2	*	*M2/2	*	*M2/2	*	*M2/2	*	*M2/2	*M2/2
*met(c|)	*	*met(c|)	*met(c|)	*met(c|)	*met(c|)	*	*met(c|)	*	*met(c|)	*	*met(c|)	*	*met(c|)	*	*met(c|)	*met(c|)
!LO:TX:b:t=Canti	!	!LO:TX:b:t=Per te Sciamus	!	!	!	!	!	!	!	!	!	!	!	!	!LO:TX:b:t=Per te Sciamus	!LO:TX:b:t=Per te Sciamus.
4C/	.	4C/	00r	00r	00r	.	00r	.	00r	.	8cc\	Per	8cc\	Per	1r	1r
.	.	.	.	.	.	.	.	.	.	.	16cc\	te	16cc\	te	.	.
.	.	.	.	.	.	.	.	.	.	.	16b\	ſci-	16dd\	Sci-	.	.
4r	.	4r	.	.	.	.	.	.	.	.	8cc\	-a-	8ee\	-a-	.	.
.	.	.	.	.	.	.	.	.	.	.	16cc\	-mus	16ee\	-mus	.	.
.	.	.	.	.	.	.	.	.	.	.	16dd\	ſci-	16ff\	ſci-	.	.
4C/	5 3	8c\L	.	.	.	.	.	.	.	.	8ee\	-a-	8gg\	-a-	.	.
.	.	8c\J	.	.	.	.	.	.	.	.	16ee\	-mus	16gg\	-mus	.	.
.	.	.	.	.	.	.	.	.	.	.	16ee\	da	16gg\	da	.	.
!	!	!LO:TX:a:t=P:problem:mixed beam	!	!	!	!	!	!	!	!	!	!	!	!	!	!
4GG/	.	8G\L	.	.	.	.	.	.	.	.	8b\	Pa-	8dd\	Pa-	.	.
.	.	8GG/J	.	.	.	.	.	.	.	.	8g/	-trem	8dd\	-trem	.	.
!LO:LB:g=original	!	!	!	!	!	!	!	!	!	!	!	!	!	!	!	!
=82	=82	=82-	=82	=82	=82	=82	=82	=82	=82	=82	=82	=82	=82	=82	=82-	=82-
!LO:TX:b:t=Clarini	!	!	!	!	!	!	!	!	!	!	!	!	!	!	!	!
4C/	.	1r	.	.	.	.	.	.	.	.	1r	.	1r	.	4r	8cc\L
.	.	.	.	.	.	.	.	.	.	.	.	.	.	.	.	16cc\L
.	.	.	.	.	.	.	.	.	.	.	.	.	.	.	.	16dd\JJ
4r	.	.	.	.	.	.	.	.	.	.	.	.	.	.	16cc\LL	16ee\LL
.	.	.	.	.	.	.	.	.	.	.	.	.	.	.	16dd\	16ff\
.	.	.	.	.	.	.	.	.	.	.	.	.	.	.	16cc\	16ee\
.	.	.	.	.	.	.	.	.	.	.	.	.	.	.	16dd\JJ	16ff\JJ
8c\L	.	.	.	.	.	.	.	.	.	.	.	.	.	.	8ee\L	8gg\L
16c\L	.	.	.	.	.	.	.	.	.	.	.	.	.	.	16ee\L	16gg\L
16c\JJ	.	.	.	.	.	.	.	.	.	.	.	.	.	.	16ee\JJ	16gg\JJ
!LO:TX:a:t=P:problem:mixed beam	!	!	!	!	!	!	!	!	!	!	!	!	!	!	!	!
8G\L	.	.	.	.	.	.	.	.	.	.	.	.	.	.	8g/L	8dd\L
8GG/J	.	.	.	.	.	.	.	.	.	.	.	.	.	.	8g/J	8dd\J
=83	=83	=83-	=83	=83	=83	=83	=83	=83	=83	=83	=83-	=83	=83-	=83	=83-	=83-
!LO:TX:b:t=Cant	!	!LO:TX:a:t=P:problem:mixed beam	!	!	!	!	!	!	!	!	!	!	!	!	!	!
4C/	.	16c\LL	.	.	.	.	.	.	.	.	4g/	no-	(>16cc\LL	No-	1r	1r
.	.	16C/	.	.	.	.	.	.	.	.	.	.	16b\	.	.	.
.	.	16E/	.	.	.	.	.	.	.	.	.	.	16cc\)	.	.	.
.	.	16C/JJ	.	.	.	.	.	.	.	.	.	.	16dd\JJ	.	.	.
!	!	!LO:TX:a:t=P:problem:mixed beam	!	!	!	!	!	!	!	!	!	!	!	!	!	!
4r	.	8c\L	.	.	.	.	.	.	.	.	(>16cc\LL	-ſca-	(>16ee\LL	ſca-	.	.
.	.	.	.	.	.	.	.	.	.	.	16b\)	.	16dd\)	.	.	.
.	.	8C/J	.	.	.	.	.	.	.	.	(>16cc\	-mus	(>16ee\	-mus	.	.
.	.	.	.	.	.	.	.	.	.	.	16dd\JJ)	.	16ff\JJ)	.	.	.
4C/	.	16C\LL	.	.	.	.	.	.	.	.	8ee\	at-	8gg\	at-	.	.
.	.	16D\	.	.	.	.	.	.	.	.	.	.	.	.	.	.
.	.	16E\	.	.	.	.	.	.	.	.	8ee\	-que	8gg\	-que	.	.
.	.	16F\JJ	.	.	.	.	.	.	.	.	.	.	.	.	.	.
!	!	!LO:TX:a:t=P:problem:mixed beam	!	!	!	!	!	!	!	!	!	!	!	!	!	!
4GG/	.	8G\L	.	.	.	.	.	.	.	.	16b\	Fi-	16dd\	Fi-	.	.
.	.	.	.	.	.	.	.	.	.	.	16b\	-li-	16dd\	-li-	.	.
.	.	8GG/J	.	.	.	.	.	.	.	.	8b\	-um	8dd\	-um	.	.
=84	=84	=84-	=84	=84	=84	=84	=84	=84	=84	=84	=84-	=84	=84-	=84	=84-	=84-
!LO:TX:b:t=Clarini	!	!	!	!	!	!	!	!	!	!	!	!	!	!	!	!
4C/	.	1r	.	.	.	.	.	.	.	.	1r	.	1r	.	4r	16cc\LL
.	.	.	.	.	.	.	.	.	.	.	.	.	.	.	.	16dd\
.	.	.	.	.	.	.	.	.	.	.	.	.	.	.	.	16cc\
.	.	.	.	.	.	.	.	.	.	.	.	.	.	.	.	16dd\JJ
4r	.	.	.	.	.	.	.	.	.	.	.	.	.	.	16cc\LL	16ee\LL
.	.	.	.	.	.	.	.	.	.	.	.	.	.	.	16dd\	16ff\
.	.	.	.	.	.	.	.	.	.	.	.	.	.	.	16cc\	16ee\
.	.	.	.	.	.	.	.	.	.	.	.	.	.	.	16dd\JJ	16ff\JJ
4c\	.	.	.	.	.	.	.	.	.	.	.	.	.	.	8ee\L	8gg\L
.	.	.	.	.	.	.	.	.	.	.	.	.	.	.	16ee\L	16gg\L
.	.	.	.	.	.	.	.	.	.	.	.	.	.	.	16ee\JJ	16gg\JJ
!	!	!	!	!	!	!	!	!	!	!	!	!	!	!	!	!LO:LB:g=original
4G\	.	.	.	.	.	.	.	.	.	.	.	.	.	.	8g/L	8dd\L
.	.	.	.	.	.	.	.	.	.	.	.	.	.	.	8g/J	8dd\J
!	!	!LO:LB:g=original	!	!	!	!	!	!	!	!	!	!	!	!	!	!
=85	=85	=85	=85	=85	=85	=85	=85	=85	=85	=85	=85-	=85	=85-	=85	=85-	=85
!LO:TX:b:t=Canti	!	!	!	!	!	!	!	!	!	!	!	!	!	!	!	!
4C/	.	4C/	00r	00r	00r	.	0r	.	0r	.	8ee\	te	8gg\	Te	1r	1r
.	.	.	.	.	.	.	.	.	.	.	16ee\	u-	16gg\	u-	.	.
.	.	.	.	.	.	.	.	.	.	.	16ee\	-tri-	16gg\	-tri-	.	.
8C/L	.	8c\L	.	.	.	.	.	.	.	.	8b\	-us-	8gg\	-us-	.	.
8GG/J	.	8G\J	.	.	.	.	.	.	.	.	8b\	-que	8dd\	-que	.	.
!	!	!	!	!	!	!	!	!	!	!	!LO:LB:g=original	!	!LO:LB:g=original	!	!	!
!	!	!LO:TX:a:t=P:problem:mixed beam	!	!	!	!	!	!	!	!	!	!	!	!	!	!
4C/	.	8c\L	.	.	.	.	.	.	.	.	16cc\	Spi-	16ee\	Spi-	.	.
.	.	.	.	.	.	.	.	.	.	.	16b\	-ri-	16dd\	-ri-	.	.
.	.	16C/L	.	.	.	.	.	.	.	.	16cc\	-tum	16ee\	-tum	.	.
.	.	16D/J	.	.	.	.	.	.	.	.	16dd\	cre-	16ff\	cre-	.	.
4C/	.	8E/	.	.	.	.	.	.	.	.	8ee\	-da-	8gg\	-da-	.	.
.	.	8C/J	.	.	.	.	.	.	.	.	8ee\	-mus	8gg\	-mus	.	.
=86	=86	=86	=86	=86	=86	=86	=86	=86	=86	=86	=86	=86	=86	=86	=86-	=86-
8c\L	.	1r	.	.	.	.	.	.	.	.	00r	.	00r	.	16ee\LL	16gg\LL
.	.	.	.	.	.	.	.	.	.	.	.	.	.	.	16ee\	16gg\
8c\	.	.	.	.	.	.	.	.	.	.	.	.	.	.	16ee\	16gg\
.	.	.	.	.	.	.	.	.	.	.	.	.	.	.	16ee\JJ	16gg\JJ
!	!	!	!	!	!	!	!	!	!	!	!	!	!	!	!LO:LB:g=original	!
!	!	!	!	!	!	!	!	!	!	!	!	!	!	!	!LO:TX:a:t=P:problem:mixed beam	!
8c\	.	.	.	.	.	.	.	.	.	.	.	.	.	.	8ee\L	8gg\L
8B\J	X 6	.	.	.	.	.	.	.	.	.	.	.	.	.	8g/J	8dd\J
4c\	.	.	.	.	.	.	.	.	.	.	.	.	.	.	16cc\LL	16ee\LL
.	.	.	.	.	.	.	.	.	.	.	.	.	.	.	16g\	16dd\
.	.	.	.	.	.	.	.	.	.	.	.	.	.	.	16cc\	16ee\
.	.	.	.	.	.	.	.	.	.	.	.	.	.	.	16dd\JJ	16ff\JJ
4C/	.	.	.	.	.	.	.	.	.	.	.	.	.	.	8ee\L	8gg\L
.	.	.	.	.	.	.	.	.	.	.	.	.	.	.	8ee\J	8gg\J
!	!	!	!	!	!	!	!	!	!LO:LB:g=original	!	!	!	!	!	!	!
=87	=87	=87-	=87	=87	=87	=87	=87-	=87	=87-	=87	=87	=87	=87	=87	=87-	=87-
!LO:TX:b:t=Alt	!	!	!	!	!	!	!	!	!	!	!	!	!	!	!	!
8r	.	8r	.	.	.	.	8r	.	8r	.	.	.	.	.	0r	0r
.	.	.	.	.	.	.	.	.	.	.	.	.	.	.	.	.
8C/	.	8C/	.	.	.	.	8e\	Cre-	8g\	-Cre-	.	.	.	.	.	.
.	.	.	.	.	.	.	.	.	.	.	.	.	.	.	.	.
!LO:TX:b:t=Ten&colon;	!	!	!	!	!	!	!	!	!	!	!	!	!	!	!	!
4F\	.	4c 4A 4F 4C 4AA 4FF/	.	.	.	.	8f\	-da-	8a\	-da-	.	.	.	.	.	.
.	.	.	.	.	.	.	8f\	-mus	8a\	-mus	.	.	.	.	.	.
!	!	!	!	!	!	!	!LO:LB:g=original	!	!	!	!	!	!	!	!	!
4D/	.	8r	.	.	.	.	8d\	o-	8f\	o-	.	.	.	.	.	.
.	.	.	.	.	.	.	.	.	.	.	.	.	.	.	.	.
.	.	16D/LL	.	.	.	.	8d\	-mni	8f\	-mni	.	.	.	.	.	.
.	.	16D/JJ	.	.	.	.	.	.	.	.	.	.	.	.	.	.
4C/	.	4C/	.	.	.	.	16e\	tem-	16g\	tem-	.	.	.	.	.	.
.	.	.	.	.	.	.	16e\	-po-	16g\	-po-	.	.	.	.	.	.
.	.	.	.	.	.	.	8e\	-re	8g\	-re	.	.	.	.	.	.
=88	=88	=88	=88	=88	=88	=88	=88	=88	=88	=88	=88	=88	=88	=88	=88-	=88-
8r	.	8r	.	.	.	.	8r	.	8r	.	.	.	.	.	.	.
*	*	*	*	*	*	*	*	*ij	*	*ij	*	*	*	*	*	*
8C/	.	8C/	.	.	.	.	8c\	Cre-	8e\	Cre-	.	.	.	.	.	.
4D/	.	4A 4F 4D 4AA 4DD/	.	.	.	.	8d\	-da-	8f\	-da-	.	.	.	.	.	.
.	.	.	.	.	.	.	8d\	-mus	8f\	-mus	.	.	.	.	.	.
4GG/	.	16GG/LL	.	.	.	.	8B\	o-	8d\	o-	.	.	.	.	.	.
.	.	16AA/	.	.	.	.	.	.	.	.	.	.	.	.	.	.
.	.	16BB/	.	.	.	.	8G\	-mni	8d\	-mni	.	.	.	.	.	.
.	.	16GG/JJ	.	.	.	.	.	.	.	.	.	.	.	.	.	.
4C/	.	16C/LL	.	.	.	.	16c\	tem-	16e\	tem-	.	.	.	.	.	.
.	.	16D/	.	.	.	.	16c\	-po-	16e\	-po-	.	.	.	.	.	.
.	.	16E/	.	.	.	.	8c\	-re	8e\	-re	.	.	.	.	.	.
.	.	16C/JJ	.	.	.	.	.	.	.	.	.	.	.	.	.	.
*	*	*	*	*	*	*	*	*Xij	*	*Xij	*	*	*	*	*	*
!LO:LB:g=original	!	!	!	!	!	!	!	!	!	!	!	!	!	!	!	!
=89	=89	=89	=89	=89	=89	=89	=89	=89	=89	=89	=89	=89	=89	=89	=89-	=89-
!LO:TX:b:t=Clarini	!	!	!	!	!	!	!	!	!	!	!	!	!	!	!	!
8r	.	0r	0r	0r	0r	.	0r	.	0r	.	.	.	.	.	8r	8r
!LO:TX:a:t=P:problem:mixed beam	!	!	!	!	!	!	!	!	!	!	!	!	!	!	!	!
8C/L	.	.	.	.	.	.	.	.	.	.	.	.	.	.	16ee\LL	16gg\LL
.	.	.	.	.	.	.	.	.	.	.	.	.	.	.	16ee\J	16gg\J
8F\	.	.	.	.	.	.	.	.	.	.	.	.	.	.	8ff\	8aa\
8F\J	.	.	.	.	.	.	.	.	.	.	.	.	.	.	8ff\J	8aa\J
4D/	.	.	.	.	.	.	.	.	.	.	.	.	.	.	8dd\L	8ff\L
.	.	.	.	.	.	.	.	.	.	.	.	.	.	.	8dd\J	8ff\J
4C/	.	.	.	.	.	.	.	.	.	.	.	.	.	.	16ee\LL	16gg\LL
.	.	.	.	.	.	.	.	.	.	.	.	.	.	.	16ee\J	16gg\J
.	.	.	.	.	.	.	.	.	.	.	.	.	.	.	8ee\J	8gg\J
=90	=90	=90	=90	=90	=90	=90	=90	=90	=90	=90	=90	=90	=90	=90	=90	=90
8r	.	.	.	.	.	.	.	.	.	.	1r	.	1r	.	8r	8r
8C/L	.	.	.	.	.	.	.	.	.	.	.	.	.	.	16cc\LL	16ee\L
.	.	.	.	.	.	.	.	.	.	.	.	.	.	.	16cc\J	16ee\J
8D/	.	.	.	.	.	.	.	.	.	.	.	.	.	.	8dd\	8ff\L
8D/J	.	.	.	.	.	.	.	.	.	.	.	.	.	.	8dd\J	8ff\J
!LO:TX:a:t=P:problem:mixed beam	!	!	!	!	!	!	!	!	!	!	!	!	!	!	!	!
8G\L	.	.	.	.	.	.	.	.	.	.	.	.	.	.	8g/L	8dd\L
8GG/J	.	.	.	.	.	.	.	.	.	.	.	.	.	.	8g/J	8dd\J
4C/	.	.	.	.	.	.	.	.	.	.	.	.	.	.	8cc\L	8ee\L
.	.	.	.	.	.	.	.	.	.	.	.	.	.	.	16cc\L	16ee\
.	.	.	.	.	.	.	.	.	.	.	.	.	.	.	16cc\JJ	16ee\J
!	!	!	!	!	!LO:LB:g=original	!	!	!	!	!	!	!	!	!	!	!LO:LB:g=original
=91	=91	=91-	=91-	=91-	=91-	=91	=91-	=91	=91	=91	=91-	=91	=91-	=91	=91	=91
*M3/4	*	*M3/4	*M3/4	*M3/4	*M3/4	*	*M3/4	*	*M3/4	*	*M3/4	*	*M3/4	*	*M3/4	*M3/4
!	!	!	!LO:TX:b:t=Credamus.	!LO:TX:b:t=tutti	!	!	!	!	!	!	!	!	!	!	!	!
!LO:TX:b:t=tutti	!	!LO:TX:b:t=tutti	!LO:TX:a:t=tutti	!LO:TX:b:t=Credamus	!	!	!LO:TX:a:t=tutti	!	!	!	!LO:TX:a:t=tutti	!	!LO:TX:b:t=tutti	!	!LO:TX:b:t=tutti	!LO:TX:b:t=tutti
4C/	.	8C/L	8ee\L	8gg\L	4C/	Cre-	4c\	Cre-	16e\LL	Cre-	(>8cc\L	Cre-	(>8cc\L	Cre-	8gg\L	8ee\L
!	!	!	!	!	!	!	!	!	!LO:TX:a:t=tutti	!	!	!	!	!	!	!
.	.	.	.	.	.	.	.	.	16d\	.	.	.	.	.	.	.
.	.	8D/	8dd\	8ff\	.	.	.	.	16c\	.	8b\)	.	8dd\)	.	8ee\	8gg\
.	.	.	.	.	.	.	.	.	16d\JJ	.	.	.	.	.	.	.
4C/	.	8E/	8cc\	8ee\	4C/	-da-	16c\LL	-da-	16e\LL	.	(>8cc\	-da-	(>8ee\	-da-	8cc\	8ee\
.	.	.	.	.	.	.	16B\	.	16d\	.	.	.	.	.	.	.
.	.	8C/J	8dd\J	8ff\J	.	.	16c\	.	16e\	.	8dd\J)	.	8ff\J)	.	8ee\J	8cc\
.	.	.	.	.	.	.	16d\JJ	.	16f\JJ	.	.	.	.	.	.	.
4C/	.	8G\L	4ee\	4gg\	4C/	-mus	8e\	-mus	8g\	-da-	4ee\	-mus	4gg\	-mus	8ee\L	8gg\
.	.	8c\J	.	.	.	.	8e\	.	8g\	-mus	.	.	.	.	8cc\J	8ee\J
!	!	!	!	!	!	!	!	!	!LO:PB:g=original	!	!	!	!	!	!	!
=92	=92	=92	=92	=92	=92	=92	=92	=92	=92-	=92	=92	=92	=92	=92	=92	=92
*	*	*	*	*	*	*	*	*	*	*	*2\right	*	*2\right	*	*	*
!	!	!LO:TX:a:t=P:problem:mixed beam	!	!	!	!	!	!	!	!	!	!	!	!	!	!
4D/	.	8B\L	4dd\	8aa\L	16G\LL	o-	8d\L	o-	8f\L	-o-	2dd\	O-	2ff\	o-	4dd\	4ff\
.	.	.	.	.	16A\	.	.	.	.	.	.	.	.	.	.	.
.	.	8G\	.	8bb\	16G\	.	(>8e\	.	(>8g\	.	.	.	.	.	.	.
.	.	.	.	.	16F\JJ	.	.	.	.	.	.	.	.	.	.	.
8GG/L	X 6	8A\	4ee\	8ccc\	16E\LL	.	8f\)	.	8a\)	.	.	.	.	.	8dd\L	8ff\L
.	.	.	.	.	16F\	.	.	.	.	.	.	.	.	.	.	.
8BB/J	X 7	8B\	.	8ddd\J	16E\	.	8e\J	.	8g\J	.	.	.	.	.	8ee\	8gg\
.	.	.	.	.	16D\JJ	.	.	.	.	.	.	.	.	.	.	.
4C/	.	16c\L	4cc\	4eee\	4C/	-mni	(>8d\L	-mni	8f\L	-mni	(>8dd\L	-mni	(>8ff\L	-mni	8dd\	8ff\
.	.	16C/	.	.	.	.	.	.	.	.	.	.	.	.	.	.
.	.	16E/	.	.	.	.	8c\J)	.	(>16e\L	.	8cc\J)	.	8ee\J)	.	8cc\J	8ee\J
.	.	16F/JJ	.	.	.	.	.	.	16f\JJ)	.	.	.	.	.	.	.
!	!	!LO:LB:g=original	!	!	!	!	!	!	!	!	!	!	!	!	!LO:LB:g=original	!
=93	=93	=93	=93	=93	=93	=93	=93	=93	=93	=93	=93	=93	=93	=93	=93	=93
!	!	!	!	!	!	!	!	!	!	!	!	!	!LO:TX:a:t=P:problem:w źródle łuczek nad "+"	!	!	!
!	!	!	!	!	!	!	!	!	!	!	!	!	!LO:TX:a:t=+	!	!	!
4.GG/	X 4	4.G\	4.b/	4.ddd\	4.GG/	tem-	4.B\	tem-	4.g\	-tem-	4.b\	tem-	4.dd\	tem-	4.g/	4.dd\
8GG/	X 3	8GG/	8b/	8ddd\	8GG/	-po-	8B\	-po-	8f\	-po-	8b\	-po-	8dd\	-po-	8g/	8dd\
4C/	.	4C/	4cc\	4ccc\	4C/	-re	4c\	-re	4e\	-re.	4cc\	-re	4cc\	-re	4e/	4cc\
!	!	!	!	!	!	!	!LO:LB:g=original	!	!	!	!	!	!	!	!	!
=94	=94	=94	=94	=94	=94-	=94	=94	=94	=94	=94	=94	=94	=94	=94	=94	=94
!LO:TX:b:t=Clarini	!	!	!LO:N:vis=0	!LO:N:vis=0	!LO:N:vis=0	!	!	!	!	!	!	!	!	!	!LO:TX:b:t=a	!
!	!	!	!	!	!	!	!LO:N:vis=0	!	!LO:N:vis=0	!	!	!	!	!	!	!
!	!	!LO:N:vis=0	!	!	!	!	!	!	!	!	!LO:N:vis=0	!	!LO:N:vis=0	!	!	!
4c\	.	1.r	1.r	1.r	1.r	.	1.r	.	1.r	.	1.r	.	1.r	.	8e/L	8cc\L
!	!	!	!	!	!	!	!	!	!	!	!	!	!	!	!LO:TX:b:t=2	!LO:TX:b:t=a
.	.	.	.	.	.	.	.	.	.	.	.	.	.	.	8g/J	8dd\
!	!	!	!	!	!	!	!	!	!	!	!	!	!	!	!	!LO:TX:b:t=2
4c\	.	.	.	.	.	.	.	.	.	.	.	.	.	.	8cc\L	8ee\
.	.	.	.	.	.	.	.	.	.	.	.	.	.	.	8dd\J	8ff\J
4c\	.	.	.	.	.	.	.	.	.	.	.	.	.	.	4ee\	4gg\
=95	=95	=95	=95	=95	=95	=95	=95	=95	=95	=95	=95	=95	=95	=95	=95	=95
4B\	.	.	.	.	.	.	.	.	.	.	.	.	.	.	8dd\L	8ff\L
.	.	.	.	.	.	.	.	.	.	.	.	.	.	.	8ee\	8gg\
4G\	.	.	.	.	.	.	.	.	.	.	.	.	.	.	8ff\	8aa\
.	.	.	.	.	.	.	.	.	.	.	.	.	.	.	8ee\J	8gg\J
4c\	.	.	.	.	.	.	.	.	.	.	.	.	.	.	16dd\LL	16ff\LL
.	.	.	.	.	.	.	.	.	.	.	.	.	.	.	16ee\	16gg\
.	.	.	.	.	.	.	.	.	.	.	.	.	.	.	16dd\	16ff\
.	.	.	.	.	.	.	.	.	.	.	.	.	.	.	16cc\JJ	16ee\JJ
=96	=96	=96	=96	=96	=96	=96	=96	=96	=96	=96	=96	=96	=96	=96	=96	=96
4.G\	.	2.r	2.r	2.r	2.r	.	2.r	.	2.r	.	2.r	.	2.r	.	4g/	4dd\
.	.	.	.	.	.	.	.	.	.	.	.	.	.	.	8g/L	8dd\L
8G\	.	.	.	.	.	.	.	.	.	.	.	.	.	.	8g/J	8dd\J
4C/	.	.	.	.	.	.	.	.	.	.	.	.	.	.	4e/	4cc\
!	!	!	!LO:PB:g=original	!LO:PB:g=original	!	!	!	!	!	!	!	!	!	!	!	!
=97-	=97	=97-	=97-	=97	=97	=97	=97-	=97	=97-	=97	=97-	=97	=97-	=97	=97	=97
*M2/2	*	*M2/2	*M2/2	*M2/2	*M2/2	*	*M2/2	*	*M2/2	*	*M2/2	*	*M2/2	*	*M2/2	*M2/2
*met(c|)	*	*met(c|)	*met(c|)	*met(c|)	*met(c|)	*	*met(c|)	*	*met(c|)	*	*met(c|)	*	*met(c|)	*	*met(c|)	*met(c|)
!LO:TX:b:t=Canti	!	!LO:TX:b:t=Amen.	!	!LO:TX:b:t=Amen.	!	!	!	!	!	!	!	!	!	!	!	!LO:TX:b:t=Amen.
4AA/	.	4c\ 4A\	0r	0r	00r	.	00r	.	00r	.	1r	A-	16cc\LL	A-	00r	00r
.	.	.	.	.	.	.	.	.	.	.	.	.	16b\	.	.	.
.	.	.	.	.	.	.	.	.	.	.	.	.	16cc\	.	.	.
.	.	.	.	.	.	.	.	.	.	.	.	.	16g\JJ	.	.	.
4r	.	4r	.	.	.	.	.	.	.	.	.	-men	16a\LL	.	.	.
.	.	.	.	.	.	.	.	.	.	.	.	.	16g\	.	.	.
.	.	.	.	.	.	.	.	.	.	.	.	.	16a\	.	.	.
.	.	.	.	.	.	.	.	.	.	.	.	.	16b\JJ	.	.	.
!	!	!	!	!	!	!	!	!	!	!	!	!	!LO:LB:g=original	!	!	!
4C/	.	16C/LL	.	.	.	.	.	.	.	.	.	.	16cc\LL	.	.	.
.	.	16D/	.	.	.	.	.	.	.	.	.	.	16dd\	.	.	.
.	.	16E/	.	.	.	.	.	.	.	.	.	.	16ee\	.	.	.
.	.	16F/JJ	.	.	.	.	.	.	.	.	.	.	16ff\JJ	.	.	.
!	!	!LO:TX:a:t=P:problem:mixed beam	!	!	!	!	!	!	!	!	!	!	!	!	!	!
4GG/	.	8G\L	.	.	.	.	.	.	.	.	.	.	8dd\	.	.	.
.	.	8GG/J	.	.	.	.	.	.	.	.	.	.	8dd\	-men	.	.
.	.	.	.	.	.	.	.	.	.	.	.	.	.	.	.	.
!LO:LB:g=original	!	!	!	!	!	!	!	!	!	!	!	!	!	!	!	!
=98	=98	=98	=98	=98	=98	=98	=98	=98	=98	=98	=98-	=98	=98	=98	=98	=98
4C/	.	16C/LL	.	.	.	.	.	.	.	.	(>16cc\LL	A-	16ee\LL	a-	.	.
.	.	16BB/	.	.	.	.	.	.	.	.	16b\	.	16dd\	.	.	.
.	.	16C/	.	.	.	.	.	.	.	.	16cc\	.	16cc\	.	.	.
.	.	16D/JJ	.	.	.	.	.	.	.	.	16b\JJ)	.	16dd\JJ	.	.	.
4r	.	16E\LL	.	.	.	.	.	.	.	.	(>16cc\LL	.	32ee\LLL	.	.	.
.	.	.	.	.	.	.	.	.	.	.	.	.	32dd\	.	.	.
.	.	16D\	.	.	.	.	.	.	.	.	16dd\JJ)	-men	32ee\	.	.	.
.	.	.	.	.	.	.	.	.	.	.	.	.	32ff\JJ	.	.	.
.	.	16E\	.	.	.	.	.	.	.	.	8ee\	.	8gg\J	.	.	.
.	.	16F\JJ	.	.	.	.	.	.	.	.	.	.	.	.	.	.
*	*	*	*	*	*	*	*	*	*	*	*	*ij	*	*	*	*
!	!	!LO:TX:a:t=P:problem:mixed beam	!	!	!	!	!	!	!	!	!LO:LB:g=original	!	!	!	!	!
8BB/L	X 6	8G\L	.	.	.	.	.	.	.	.	16dd\LL	A-	16ff\LL	.	.	.
.	.	.	.	.	.	.	.	.	.	.	16ee\	.	16gg\	.	.	.
8C/J	.	8c\	.	.	.	.	.	.	.	.	16dd\	.	16ff\	.	.	.
.	.	.	.	.	.	.	.	.	.	.	16cc\JJ	.	16ee\JJ	.	.	.
!	!	!	!	!	!	!	!	!	!	!	!	!	!LO:TX:a:t=P:problem:w źródle łuczek nad "+"	!	!	!
!	!	!	!	!	!	!	!	!	!	!	!	!	!LO:TX:a:t=+	!	!	!
8GG/L	.	8G\	.	.	.	.	.	.	.	.	8.b\	.	8.dd\	-me	.	.
8C/J	.	8C/J	.	.	.	.	.	.	.	.	.	.	.	.	.	.
.	.	.	.	.	.	.	.	.	.	.	16cc\	-men	16cc\	.	.	.
*	*	*	*	*	*	*	*	*	*	*	*	*Xij	*	*	*	*
=99	=99	=99	=99	=99	=99	=99	=99	=99	=99	=99	=99	=99	=99	=99	=99	=99
!	!	!LO:TX:b:t=Violini	!LO:TX:b:t=Amen.	!	!	!	!	!	!	!	!	!	!	!	!	!
8A\L	.	16A\LL	16cc\LL	16cc\LL	.	.	.	.	.	.	00r	.	00r	.	.	.
.	.	16G\	16b\	16b\	.	.	.	.	.	.	.	.	.	.	.	.
8c\J	.	16A\	16cc\	16cc\	.	.	.	.	.	.	.	.	.	.	.	.
.	.	16B\JJ	16g\JJ	16g\JJ	.	.	.	.	.	.	.	.	.	.	.	.
4r	.	4c\	16a/LL	16a/LL	.	.	.	.	.	.	.	.	.	.	.	.
.	.	.	16g/	16g/	.	.	.	.	.	.	.	.	.	.	.	.
.	.	.	16a/	16a/	.	.	.	.	.	.	.	.	.	.	.	.
.	.	.	16g/JJ	16b/JJ	.	.	.	.	.	.	.	.	.	.	.	.
4c\	.	8c\L	16cc\LL	16cc\LL	.	.	.	.	.	.	.	.	.	.	.	.
.	.	.	16b\	16dd\	.	.	.	.	.	.	.	.	.	.	.	.
.	.	16B\L	16cc\	16ee\	.	.	.	.	.	.	.	.	.	.	.	.
.	.	16A\JJ	16dd\JJ	16ff\JJ	.	.	.	.	.	.	.	.	.	.	.	.
4G\	.	4G\	8b/L	8dd\L	.	.	.	.	.	.	.	.	.	.	.	.
.	.	.	8b/J	8dd\J	.	.	.	.	.	.	.	.	.	.	.	.
=100	=100	=100	=100	=100	=100	=100	=100	=100	=100	=100	=100	=100	=100	=100	=100	=100
4c\	.	4C/	8cc\L	16ee\LL	.	.	.	.	.	.	.	.	.	.	.	.
.	.	.	.	16dd\	.	.	.	.	.	.	.	.	.	.	.	.
.	.	.	8b\J	16cc\	.	.	.	.	.	.	.	.	.	.	.	.
.	.	.	.	16dd\JJ	.	.	.	.	.	.	.	.	.	.	.	.
4r	.	4r	8cc\L	8ee\L	.	.	.	.	.	.	.	.	.	.	.	.
.	.	.	16dd\L	16ff\L	.	.	.	.	.	.	.	.	.	.	.	.
.	.	.	16ee\JJ	16gg\JJ	.	.	.	.	.	.	.	.	.	.	.	.
!LO:TX:a:t=P:problem:mixed beam	!	!	!	!	!	!	!	!	!	!	!	!	!	!	!	!
8B\L	.	8BB/L	16dd\LL	16ff\LL	.	.	.	.	.	.	.	.	.	.	.	.
.	.	.	16ee\	16gg\	.	.	.	.	.	.	.	.	.	.	.	.
8c\	.	8C/	16dd\	16ff\	.	.	.	.	.	.	.	.	.	.	.	.
.	.	.	16cc\JJ	16ee\JJ	.	.	.	.	.	.	.	.	.	.	.	.
8G\	.	8GG/	8b\L	8dd\L	.	.	.	.	.	.	.	.	.	.	.	.
8C/J	.	8C/J	8cc\J	8cc\J	.	.	.	.	.	.	.	.	.	.	.	.
=101	=101	=101	=101	=101	=101	=101	=101-	=101	=101-	=101	=101	=101	=101	=101	=101	=101
!LO:TX:b:t=A. T.	!	!LO:TX:b:t=A T.	!	!	!	!	!	!	!	!	!	!	!	!	!	!
4C/	.	16C/LL	00r	00r	00r	.	8e\L	A-	8g\L	A-	.	.	.	.	0r	0r
.	.	16D/	.	.	.	.	.	.	.	.	.	.	.	.	.	.
!	!	!	!	!	!	!	!LO:TX:b:t=a	!	!	!	!	!	!	!	!	!
.	.	16E/	.	.	.	.	16d\L	.	16f\L	.	.	.	.	.	.	.
!	!	!	!	!	!	!	!LO:TX:b:t=2	!	!	!	!	!	!	!	!	!
.	.	16C/JJ	.	.	.	.	16e\JJ	.	16g\JJ	.	.	.	.	.	.	.
4F\	.	16F\LL	.	.	.	.	8f\L	.	8a\L	.	.	.	.	.	.	.
.	.	16G\	.	.	.	.	.	.	.	.	.	.	.	.	.	.
.	.	16F\	.	.	.	.	16e\L	.	16g\L	.	.	.	.	.	.	.
.	.	16E\JJ	.	.	.	.	16f\JJ	.	16a\JJ	.	.	.	.	.	.	.
!	!	!LO:LB:g=original	!	!	!	!	!	!	!	!	!	!	!	!	!	!
8D/L	.	16D/LL	.	.	.	.	8d\L	.	8f\L	.	.	.	.	.	.	.
.	.	16C/	.	.	.	.	.	.	.	.	.	.	.	.	.	.
8BB/J	.	16BB/	.	.	.	.	16c\L	.	16e\L	.	.	.	.	.	.	.
.	.	16GG/JJ	.	.	.	.	16d\JJ	.	16f\JJ	.	.	.	.	.	.	.
4C/	.	4C/	.	.	.	.	8e\	.	8g\	.	.	.	.	.	.	.
.	.	.	.	.	.	.	8e\	men	8g\	men	.	.	.	.	.	.
=102	=102	=102	=102	=102	=102	=102	=102	=102	=102	=102	=102	=102	=102	=102	=102	=102
*	*	*	*	*	*	*	*	*ij	*	*	*	*	*	*	*	*
4C/	.	16C/LL	.	.	.	.	32c\LLL	A	16e\LL	a-	.	.	.	.	.	.
.	.	.	.	.	.	.	32d\	.	.	.	.	.	.	.	.	.
.	.	16BB/	.	.	.	.	32e\	.	16f\	.	.	.	.	.	.	.
.	.	.	.	.	.	.	32c\JJJ	.	.	.	.	.	.	.	.	.
.	.	16C/	.	.	.	.	16f\LL	.	16g\	.	.	.	.	.	.	.
.	.	16D/JJ	.	.	.	.	16e\JJ	.	16e\JJ	.	.	.	.	.	.	.
8BB/L	.	16E\LL	.	.	.	.	16d\LL	.	16a\LL	.	.	.	.	.	.	.
.	.	16D\	.	.	.	.	16e\	.	16g\	.	.	.	.	.	.	.
8C/J	.	16E\	.	.	.	.	16d\	.	32f\L	.	.	.	.	.	.	.
.	.	.	.	.	.	.	.	.	32g\	.	.	.	.	.	.	.
.	.	16F\JJ	.	.	.	.	16c\JJ	.	32f\	.	.	.	.	.	.	.
.	.	.	.	.	.	.	.	.	32e\JJJ	.	.	.	.	.	.	.
!	!	!LO:TX:a:t=P:problem:mixed beam	!	!	!	!	!	!	!	!	!	!	!	!	!	!
4GG/	.	8G\L	.	.	.	.	4B\	.	4d\	.	.	.	.	.	.	.
.	.	8GG/J	.	.	.	.	.	.	.	.	.	.	.	.	.	.
4C/	.	4C/	.	.	.	.	4c\	-men	4c\	-men	.	.	.	.	.	.
*	*	*	*	*	*	*	*	*Xij	*	*	*	*	*	*	*	*
!	!	!	!	!	!	!	!	!	!LO:LB:g=original	!	!	!	!	!	!	!LO:LB:g=original
=103	=103	=103	=103	=103	=103	=103	=103-	=103	=103	=103	=103	=103	=103	=103	=103	=103
!LO:TX:b:t=Clarini	!	!	!	!	!	!	!	!	!	!	!	!	!	!	!	!
4C/	.	0r	.	.	.	.	00r	.	00r	.	0r	.	0r	.	8ee\L	8gg\L
.	.	.	.	.	.	.	.	.	.	.	.	.	.	.	16dd\L	16ff\L
.	.	.	.	.	.	.	.	.	.	.	.	.	.	.	16ee\JJ	16gg\JJ
4F\	.	.	.	.	.	.	.	.	.	.	.	.	.	.	8ff\L	8aa\L
.	.	.	.	.	.	.	.	.	.	.	.	.	.	.	16ee\L	16gg\L
.	.	.	.	.	.	.	.	.	.	.	.	.	.	.	16ff\JJ	16aa\JJ
4D/	.	.	.	.	.	.	.	.	.	.	.	.	.	.	8dd\L	8ff\L
.	.	.	.	.	.	.	.	.	.	.	.	.	.	.	16cc\L	16ee\L
.	.	.	.	.	.	.	.	.	.	.	.	.	.	.	16dd\JJ	16ff\JJ
4C/	.	.	.	.	.	.	.	.	.	.	.	.	.	.	8ee\L	8gg\L
.	.	.	.	.	.	.	.	.	.	.	.	.	.	.	8ee\J	8gg\J
=104	=104	=104	=104	=104	=104	=104	=104	=104	=104	=104	=104	=104	=104	=104	=104	=104
4C/	.	.	.	.	.	.	.	.	.	.	.	.	.	.	16cc\LL	16ee\LL
.	.	.	.	.	.	.	.	.	.	.	.	.	.	.	16dd\	16ff\
.	.	.	.	.	.	.	.	.	.	.	.	.	.	.	16ee\	16gg\
.	.	.	.	.	.	.	.	.	.	.	.	.	.	.	16cc\JJ	16ee\JJ
!	!	!	!	!	!	!	!	!	!	!	!	!	!	!	!LO:LB:g=original	!
8D/L	.	.	.	.	.	.	.	.	.	.	.	.	.	.	16ff\LL	16aa\LL
.	.	.	.	.	.	.	.	.	.	.	.	.	.	.	16ee\	16gg\
8C/J	.	.	.	.	.	.	.	.	.	.	.	.	.	.	16dd\	16ff\
.	.	.	.	.	.	.	.	.	.	.	.	.	.	.	16cc\JJ	16ee\JJ
!	!	!	!	!	!	!	!	!	!	!	!	!	!	!	!LO:TX:a:t=+	!LO:TX:a:t=+
!	!	!	!	!	!	!	!	!	!	!	!	!	!	!	!LO:TX:a:t=P:problem:w źródle łuczek nad "+"	!LO:TX:a:t=P:problem:w źródle łuczek nad "+"
4GG/	.	.	.	.	.	.	.	.	.	.	.	.	.	.	4g/	4dd\
4C/	.	.	.	.	.	.	.	.	.	.	.	.	.	.	4e/	4cc\
!LO:PB:g=original	!	!	!	!	!	!	!	!	!	!	!	!	!	!	!	!
=105	=105	=105	=105	=105	=105	=105	=105	=105	=105	=105	=105-	=105	=105-	=105	=105	=105
!LO:TX:b:t=Canti	!	!LO:TX:a:t=P:problem:mixed beam	!	!	!	!	!	!	!	!	!	!	!	!	!	!
!	!	!LO:TX:b:t=repete.	!	!	!	!	!	!	!	!	!	!	!	!	!	!
8C/L	.	8c\L	0r	0r	00r	.	.	.	.	.	(>8cc\L	A-	32ee\LLL	A-	00r	00r
.	.	.	.	.	.	.	.	.	.	.	.	.	32dd\	.	.	.
.	.	.	.	.	.	.	.	.	.	.	.	.	32ee\	.	.	.
.	.	.	.	.	.	.	.	.	.	.	.	.	32ff\JJJ	.	.	.
8BB/J	X 6	8B\	.	.	.	.	.	.	.	.	8b\J)	.	16ee\	-men	.	.
.	.	.	.	.	.	.	.	.	.	.	.	.	16dd\	a-	.	.
4C/	.	8c\	.	.	.	.	.	.	.	.	(>16cc\LL	-a-	(>16ee\LL	-me	.	.
.	.	.	.	.	.	.	.	.	.	.	16dd\JJ)	.	16ff\J)	.	.	.
.	.	8C/J	.	.	.	.	.	.	.	.	8ee\	-men	8gg\J	.	.	.
*	*	*	*	*	*	*	*	*	*	*	*	*ij	*	*	*	*
8BB/L	X 6	8GG/L	.	.	.	.	.	.	.	.	(>16dd\LL	A-	16ff\LL	a-	.	.
.	.	.	.	.	.	.	.	.	.	.	16ee\	.	16gg\	.	.	.
8C/J	.	16BB/L	.	.	.	.	.	.	.	.	16dd\	.	16ff\	.	.	.
.	.	16C/JJ	.	.	.	.	.	.	.	.	16cc\JJ)	.	16ee\JJ	.	.	.
4GG/	.	4GG/	.	.	.	.	.	.	.	.	8b\	-a-	16dd\LL	.	.	.
.	.	.	.	.	.	.	.	.	.	.	.	.	16cc\	.	.	.
.	.	.	.	.	.	.	.	.	.	.	8b\	-men	16b\	-men	.	.
.	.	.	.	.	.	.	.	.	.	.	.	.	16g\JJ	.	.	.
!	!	!	!	!	!	!	!	!	!	!	!	!	!LO:LB:g=original	!	!	!
=106	=106	=106	=106	=106	=106	=106	=106	=106	=106	=106	=106	=106	=106	=106	=106	=106
4C/	.	8C\L	.	.	.	.	.	.	.	.	16cc\LL	A-	16ee\LL	A-	.	.
.	.	.	.	.	.	.	.	.	.	.	16b\	.	16dd\	.	.	.
.	.	8D\	.	.	.	.	.	.	.	.	16cc\	.	16ee\	.	.	.
.	.	.	.	.	.	.	.	.	.	.	16dd\JJ	.	16ff\JJ	.	.	.
!LO:TX:a:t=P:problem:mixed beam	!	!	!	!	!	!	!	!	!	!	!	!	!	!	!	!
8E\L	.	8E\	.	.	.	.	.	.	.	.	8ee\L	.	8gg\L	.	.	.
8F\	.	8F\J	.	.	.	.	.	.	.	.	16dd\L	.	16ff\L	.	.	.
.	.	.	.	.	.	.	.	.	.	.	16cc\JJ	.	16ee\JJ	.	.	.
!	!	!LO:TX:a:t=P:problem:mixed beam	!	!	!	!	!	!	!	!	!	!	!	!	!	!
!	!	!	!	!	!	!	!	!	!	!	!	!	!LO:TX:a:t=P:problem:w źródle łuczek nad "+"	!	!	!
!	!	!	!	!	!	!	!	!	!	!	!	!	!LO:TX:a:t=+	!	!	!
8G\	X 4	8G\L	.	.	.	.	.	.	.	.	4b\	.	4dd\	.	.	.
8GG/J	X 3	8GG/J	.	.	.	.	.	.	.	.	.	.	.	.	.	.
4C/	.	4C/	.	.	.	.	.	.	.	.	4cc\	-men	4cc\	-men.	.	.
=107	=107	=107	=107-	=107	=107	=107	=107	=107	=107	=107	=107	=107	=107	=107	=107	=107
!LO:TX:b:t=Violini	!	!LO:TX:a:t=P:problem:w źródle takty 107-108 zapisne jako repetycja taktów 105-106	!	!	!	!	!	!	!	!	!	!	!	!	!	!
!	!	!LO:TX:a:t=P:problem:mixed beam	!	!	!	!	!	!	!	!	!	!	!	!	!	!
8c\L	.	8c\L	8cc\L	8ee\L	.	.	0r	.	0r	.	0r	.	0r	.	.	.
8B\J	X 6	8B\	8b\	8dd\	.	.	.	.	.	.	.	.	.	.	.	.
4c\	.	8c\	8cc\	8ee\	.	.	.	.	.	.	.	.	.	.	.	.
.	.	8C/J	16dd\L	16ff\L	.	.	.	.	.	.	.	.	.	.	.	.
.	.	.	16ee\JJ	16gg\JJ	.	.	.	.	.	.	.	.	.	.	.	.
8B\L	X 6	8GG/L	16dd\LL	16ff\LL	.	.	.	.	.	.	.	.	.	.	.	.
.	.	.	16ee\	16gg\	.	.	.	.	.	.	.	.	.	.	.	.
8c\J	.	16BB/L	16dd\	16ff\	.	.	.	.	.	.	.	.	.	.	.	.
.	.	16C/JJ	16cc\JJ	16ee\JJ	.	.	.	.	.	.	.	.	.	.	.	.
4G\	.	4GG/	8b/L	16dd\LL	.	.	.	.	.	.	.	.	.	.	.	.
.	.	.	.	16cc\	.	.	.	.	.	.	.	.	.	.	.	.
.	.	.	8b/J	16b\	.	.	.	.	.	.	.	.	.	.	.	.
.	.	.	.	16g\JJ	.	.	.	.	.	.	.	.	.	.	.	.
!	!	!	!	!LO:LB:g=original	!	!	!	!	!	!	!	!	!	!	!	!
=108	=108	=108	=108	=108	=108	=108	=108	=108	=108	=108	=108	=108	=108	=108	=108	=108
4C/	.	8C\L	16cc\LL	16ee\LL	.	.	.	.	.	.	.	.	.	.	.	.
.	.	.	16b\	16dd\	.	.	.	.	.	.	.	.	.	.	.	.
.	.	8D\	16cc\	16ee\	.	.	.	.	.	.	.	.	.	.	.	.
.	.	.	16dd\JJ	16ff\JJ	.	.	.	.	.	.	.	.	.	.	.	.
!	!	!	!LO:LB:g=original	!	!	!	!	!	!	!	!	!	!	!	!	!
8E\L	.	8E\	8ee\L	8gg\L	.	.	.	.	.	.	.	.	.	.	.	.
8F\J	.	8F\J	16dd\L	16ff\L	.	.	.	.	.	.	.	.	.	.	.	.
.	.	.	16cc\JJ	16ee\JJ	.	.	.	.	.	.	.	.	.	.	.	.
!LO:TX:a:t=P:problem:mixed beam	!	!LO:TX:a:t=P:problem:mixed beam	!	!	!	!	!	!	!	!	!	!	!	!	!	!
!	!	!	!	!LO:TX:a:t=+	!	!	!	!	!	!	!	!	!	!	!	!
!	!	!	!	!LO:TX:a:t=P:problem:w źródle łuczek nad "+"	!	!	!	!	!	!	!	!	!	!	!	!
8G\L	X 4	8G\L	4b\	4dd\	.	.	.	.	.	.	.	.	.	.	.	.
8GG/J	X 3	8GG/J	.	.	.	.	.	.	.	.	.	.	.	.	.	.
4C/	.	4C/	4cc\	4cc\	.	.	.	.	.	.	.	.	.	.	.	.
=109	=109	=109	=109	=109	=109-	=109	=109-	=109	=109	=109	=109-	=109	=109-	=109	=109	=109-
*	*	*^	*	*	*	*	*	*	*	*	*	*	*	*	*	*
!LO:TX:b:t=Tutti	!	!	!	!	!	!	!	!	!	!	!	!	!	!	!	!	!
4G\	.	4d 4B 4G 4D 4GG 4DD/	4ryy	8b\L	4dd\	4G\	A-	4B\	A-	4g\	A-	4b\	A-	4dd\	A-	8g/L	8dd\L
.	.	.	.	8b\J	.	.	.	.	.	.	.	.	.	.	.	16g/L	16dd\L
.	.	.	.	.	.	.	.	.	.	.	.	.	.	.	.	16g/JJ	16dd\JJ
4C/	.	4e 4c 4E 4C 4GG 4EE/	4ryy	16cc\LL	16ee\LL	4c\	-men.	(>16c\LL	-men	(>16e\LL	-men	16cc\LL	.	(>16ee\LL	.	16cc\LL	16ee\LL
.	.	.	.	16ee\	16gg\	.	.	16B\)	.	16d\	.	16b\	.	16dd\)	.	16ee\	16gg\
.	.	.	.	16dd\	16ff\	.	.	(>16c\	.	16e\)	.	16dd\	.	(>16ff\	.	16dd\	16ff\
.	.	.	.	16cc\JJ	16ee\JJ	.	.	16d\JJ)	.	16f\JJ	.	16cc\JJ	.	16ee\JJ)	.	16cc\JJ	16ee\JJ
*	*	*	*	*	*	*	*ij	*	*ij	*	*ij	*	*	*	*	*	*
!LO:TX:a:t=P:problem:mixed beam	!	!	!	!	!	!	!	!	!	!	!	!	!	!	!	!	!
!	!	!	!	!	!	!	!	!	!	!	!	!	!	!LO:TX:a:t=P:problem:w źródle łuczek nad "+"	!	!	!
!	!	!	!	!	!	!	!	!	!	!	!	!	!	!LO:TX:a:t=+	!	!	!
8G\L	.	32G\LLL	4ryy	16gg\LL	4dd\	16G\LL	A-	4B\	A-	4g\	A-	4b\	.	4dd\	.	8g/L	16dd\LL
.	.	32A\	.	.	.	.	.	.	.	.	.	.	.	.	.	.	.
.	.	32G\	.	16aa\	.	16F\	.	.	.	.	.	.	.	.	.	.	16cc\
.	.	32F\	.	.	.	.	.	.	.	.	.	.	.	.	.	.	.
8GG/J	.	32E\	.	16gg\	.	16E\	.	.	.	.	.	.	.	.	.	16g/L	16dd\
.	.	32F\	.	.	.	.	.	.	.	.	.	.	.	.	.	.	.
.	.	32E\	.	16ff\JJ	.	16D\JJ	.	.	.	.	.	.	.	.	.	16g/JJ	16ee\JJ
.	.	32D\JJJ	.	.	.	.	.	.	.	.	.	.	.	.	.	.	.
4C/	.	4c/	4E 4C\	4ee\	4cc\	4C/	-men.	4c\	-men	4e\	-men	4cc\	-men	4cc\	-men	4e/	4cc\
!LO:TX:a:t=P:problem:w źródle ta adnotacja zapisana na pięciolinii	!	!	!	!	!	!	!	!	!	!	!	!	!	!	!	!	!
!LO:TX:b:t=A. M. D. G.	!	!	!	!	!	!	!	!	!	!	!	!	!	!	!	!	!
*	*	*	*	*	*	*	*Xij	*	*Xij	*	*Xij	*	*Xij	*	*	*	*
*	*	*v	*v	*	*	*	*	*	*	*	*	*	*	*	*	*	*
!	!	!LO:TX:b:t=Niechze nas Duch Nayswiętſzy Swą łaſką napoi, Ktorego Panowaniem ſwiat ten cały stoi	!	!	!	!	!	!	!	!	!	!	!	!	!	!
==	==	==	==	==	==	==	==	==	==	==	==	==	==	==	==	==
*-	*-	*-	*-	*-	*-	*-	*-	*-	*-	*-	*-	*-	*-	*-	*-	*-
!!!system-decoration: [g1][g2][g3]s11
!!!RDF**kern: > = above
!!!RDF**kern: < = below
!!!EED: Antoni Szymański
!!!EST: 2020-10-29
!!!ENC: Tomasz Grochalski
!!!END: 2020-04-30
